Shanoj-P/rocker-bogie-rover/scripts/joint_states.csv
wheel_1_joint,wheel_2_joint,wheel_3_joint,wheel_4_joint,wheel_5_joint,wheel_6_joint,time
,,,,,,0.0
-3.438993331235027e-05,-0.0002238402251757629,-0.0009776626260958703,0.00042626895528198594,0.0003247945494651988,-0.0001564131255825732,0.0
1.5231808452240148e-06,-0.00017593653521057878,0.0003882780985712299,-2.3560829003215628e-05,-9.83859843470599e-05,0.00038489594971587507,0.020000000000003126
1.8525587505188734e-05,0.00044968843978658926,0.0008170466148304661,-7.09990289858263e-05,-0.0003288363416852763,-0.00048459526656249863,0.03999999999999915
0.00032761634885724797,-0.01740939730923627,-0.02320638955269405,0.010068518907268318,0.011299679299990142,-0.0002567527139704113,0.060000000000002274
-0.0003740490745211683,-0.0005613898205788235,-0.0008953575311587969,0.0014972073833354749,0.0008715713230656522,8.857884089629115e-05,0.0800000000000054
,,,,,,0.10000000000000142
-3.709224697220209e-06,1.5572031719993107e-05,-0.0003965749630657489,6.538911303519135e-06,6.184797415513185e-05,-3.7594340192938225e-05,0.10000000000000142
-0.0014673302763564197,-0.0006954228576931676,-0.0006574956664890282,0.00010549325697513379,-0.0005304528301993128,-0.023561568188693906,0.12000000000000455
0.014554450659158077,-0.0024018372229913966,0.0016214033404230652,-4.186675700879999e-05,-0.0007957962513649144,-3.1642322805684004e-05,0.14000000000000057
0.00010971100992412594,0.00022493637069031722,-0.0023003069835773274,0.0002615750398829303,0.00032362983307544085,5.442318613922605e-05,0.1600000000000037
-8.68396336686783e-06,-3.394739930686827e-05,-0.0010982085757395288,0.0007150957339059384,0.00040106258492923416,-6.775499293319026e-06,0.17999999999999972
,,,,,,0.20000000000000284
8.130630892826118e-07,-7.805132678310664e-05,5.594716449825593e-05,1.482444379120873e-05,1.3024075928749768e-05,0.00036419060964597294,0.20000000000000284
6.564254643876e-07,-0.00012677295386258336,7.542206563231069e-06,0.00047485431599859906,0.0004773151536291084,0.0007253589743540512,0.21999999999999886
-0.0013913787790078777,0.00025049190347404063,0.000327084952668151,-4.056158336252294e-05,-0.0002807553855134169,-0.00011604765766859773,0.240000000000002
1.2409097785865894e-05,-3.193006107375662e-05,0.00020677571701865904,4.004313643363178e-06,3.070265921704257e-05,0.0003284746076394965,0.2600000000000051
-2.1379447455881022e-05,-0.00018881853768467434,-0.0005651667221925789,0.0026905135125247157,0.001747541728715201,0.0003945867975248471,0.28000000000000114
,,,,,,0.30000000000000426
-3.522322204244782e-06,2.698294282682534e-05,-0.00020315328295270052,5.500444308164775e-06,1.1587973972469485e-05,-4.218155609767016e-05,0.30000000000000426
0.0005723064704083805,0.001504053262904738,0.0037294187010877104,-3.891949468958888e-05,0.0009732069559930988,-8.520985734952746e-05,0.3200000000000003
-1.6673266162718636e-05,-0.0005610268134767851,-0.0020142809214903686,0.001917140211639412,0.0010464590368812546,7.576452016470545e-05,0.3400000000000034
1.667425806800571e-05,-0.0001352149445558587,0.005517989240752928,-1.5626827308610862e-05,-0.003676787137095522,-1.5119505903378287e-05,0.35999999999999943
-0.0011844245551816991,-0.0007720201274035443,-0.02900103874911617,-7.334134967961793e-05,-7.387508746892375e-05,-0.00028458847716139254,0.38000000000000256
,,,,,,0.4000000000000057
-0.00012013110978441668,0.0007037414008071764,0.00014983961624985553,0.0007343819099597422,-0.02007742346016412,0.00017158048859768071,0.4000000000000057
-0.00022308006212390027,-0.0002259394339747707,-0.002420723972333002,0.0005423667591632243,-0.011689790591841859,0.0006377843819345835,0.4200000000000017
3.920471238903073e-06,-0.00020753026267410907,-0.0017129601205337491,1.7921650468481765e-06,-1.460647257735953e-05,0.0002873459629691988,0.44000000000000483
-9.618753754183501e-06,-0.00039524104407756555,-0.0006228220233783811,0.0026797024049641377,0.0019434989325578314,0.0013029888442535383,0.46000000000000085
0.000954306448035059,-0.023182390350848035,-0.018243847973964934,0.0005883326230412822,-0.0024112905486933893,-0.006005727730868288,0.480000000000004
,,,,,,0.5
0.0003149431584917699,-0.011361264695045602,-0.0003887219407613298,-1.8922554260548258e-05,-0.00020992404276664114,0.0004040489615771359,0.5
4.609462886605298e-05,0.0010419891926313415,0.010019029153057777,-0.000497405713471499,-0.0011325824477803998,5.541621022618626e-05,0.5200000000000031
-1.2168130287884549e-06,4.6276173014819094e-05,-9.293658374762842e-05,4.6009768055015055e-06,2.9006257986373407e-05,5.194351862303215e-06,0.5399999999999991
-0.00035747566712786283,1.2958576756302853e-05,-8.893701264177812e-05,0.0005245642751680393,-0.0003608738913527254,-0.00013252010290954602,0.5600000000000023
-5.8153605137188646e-05,-0.0006448178701233334,-0.00035203186479214853,0.000989232311149845,0.0006984558166198175,0.00041955438898317633,0.5800000000000054
,,,,,,0.6000000000000014
-0.0001765241548345453,0.0008197592908741475,0.0005941460339700787,-0.0009682580755584272,-0.0006628843612030699,0.00031747498558046955,0.6000000000000014
-8.058987847701232e-06,-0.00016191737263686334,-0.0004451097979306824,7.36146684427938e-05,-0.01051125969969371,0.0003628082390060433,0.6200000000000045
-0.001168763179157692,-0.0006162526233942991,0.006586788069891889,-0.00023944506023916567,-2.6118816930445488e-05,0.0003966473181437648,0.6400000000000006
0.0008884000986122131,-0.013534291267976697,-0.0014515968351587333,0.01816320887714932,0.016546957388883916,0.0003460355711821378,0.6600000000000037
-8.01927295902144e-06,-0.0001110744817243367,-0.0004666881533139067,-5.071146734356158e-06,9.523071851466614e-06,0.0010610072620127137,0.6799999999999997
,,,,,,0.7000000000000028
1.2814670140616491e-05,-0.00023061105507300554,0.0011023267208544931,1.1852782965137733e-05,-0.0002458643845051267,-0.026201900467126053,0.7000000000000028
-0.001896238565271588,-0.00028136206240760714,-0.00031975377319252984,0.008687332017842359,-0.002054309487401101,-0.00023611462666423,0.7199999999999989
-0.0011285685103279031,-0.000610266346692508,-0.0013744286797598912,0.014948990432314273,-0.0011635867566264849,0.0003458505529500139,0.740000000000002
6.156334500521249e-06,-0.0004058607833401402,-0.00039868574703731674,0.0007567054103777152,0.0003233876955096504,0.0009894772697709928,0.7600000000000051
0.008663781078652111,-0.00018303397158982724,-0.0016174168827825137,9.065654009808057e-06,-0.00010096721818618568,-0.00019230709328475065,0.7800000000000011
,,,,,,0.8000000000000043
-0.000336418708909398,-0.0005091220317902084,-0.0025907414084599713,-2.614852490451236e-06,-6.669319086742218e-05,-0.00010715480683901046,0.8000000000000043
0.0005844500686478515,-0.0008260488826949538,-0.009425859417068548,-0.0007805834867948176,0.01622561437273462,0.0007139902841547113,0.8200000000000003
1.8528262564574544e-06,-0.00019773620637891093,0.0002632603617766516,0.007536654186209649,0.007348719037977149,0.0005773809647130271,0.8400000000000034
-0.002895329221686127,-0.0028205744369664805,-0.0002803910180518912,0.00015451289389996348,-0.018057740101480382,0.00023394224656820076,0.8599999999999994
2.1214645298025386e-05,-0.0006454799998105616,-0.0004651807097311965,0.0010052039676947191,0.0008840950751656251,0.0006851881092817744,0.8800000000000026
,,,,,,0.9000000000000057
-3.69867096383647e-06,-0.0003799022171894692,-0.0006776643448389574,-2.4692732891823388e-05,-0.00014753684426010993,0.0003780341848728507,0.9000000000000057
2.0354056341799487e-06,-2.943739716215754e-05,-0.008095218213504996,-2.304376258958213e-05,-0.01509783674345467,0.0001390499412090157,0.9200000000000017
-4.393433509388561e-05,-0.0004534703937311632,-0.0002816665004408119,0.00011181496451085488,-0.02752072345888389,0.003577457162744923,0.9400000000000048
-0.0011934313068007116,-0.017460019570681308,0.0008143329122798151,0.0003419338024345728,-0.008272954350594365,-0.00014241087477473782,0.9600000000000009
-5.871110762542542e-05,-0.00019755695132504109,-0.00019973818201839827,0.0007268858477224392,0.0005310862534400797,0.00010100136366579873,0.980000000000004
,,,,,,1.0
4.6607829234171505e-06,-0.0001223854579987596,0.0008477677589228457,-1.0444374627306685e-05,-0.0060340602681829975,5.9895255819158305e-05,1.0
1.6666715730470367e-05,6.666946743873583e-05,-0.0004810022673827838,-1.5744273924402086e-05,-0.00012153244457478035,-6.165963192712037e-05,1.0200000000000031
0.00029143079583924744,-0.013247999167241498,-1.718695591104019e-05,3.376202199055489e-06,0.00012641348982175837,0.0001163062731268788,1.0399999999999991
0.012478413602862008,0.001111875330342519,0.007081319508938266,-2.7692148279787054e-05,-0.0006575013521667589,2.1306804550198614e-05,1.0600000000000023
1.6892684173742956e-06,-6.843686008724953e-06,7.648492951472727e-05,0.0002975822714017737,0.00017137894748774085,0.00018336277127963332,1.0800000000000054
,,,,,,1.1000000000000014
0.0009240415224861971,-0.02631417362044214,-0.0009592160774551887,0.00040077092639937556,-0.02156599448014329,0.0014649843298541673,1.1000000000000014
-2.0890166812852565e-05,-4.969918120457245e-05,2.402429015580746e-05,-9.089939349105763e-06,-8.921275036289159e-06,0.00040881093411318514,1.1200000000000045
-0.0006876479674429552,-0.0075655184680547116,-7.243851258987438e-05,0.000530680872936758,-0.007620424229273701,0.0003570191117308677,1.1400000000000006
-1.001634966520809e-06,-1.9490478035122383e-05,-4.27504157783469e-05,1.8486173250275087e-06,0.00010338633945047165,1.1350195032226729e-05,1.1600000000000037
1.0249813879242148e-05,-9.057841316926704e-05,-0.00024097564975021288,2.801204335340507e-05,-0.02155467092145631,-0.0055236190986565625,1.1799999999999997
,,,,,,1.2000000000000028
-3.50694644822222e-06,2.6622318199713557e-05,-0.0003270678220044648,0.00016673855553670652,-0.003579602261731589,-4.916541681552686e-06,1.2000000000000028
-0.010322833631658356,0.006754186579968235,0.0015404187917097412,-4.1599845995940835e-05,-0.0004824772337797786,-0.0001569888406202924,1.2199999999999989
-0.0018256335430250556,-0.00030967531964148226,-0.0007221008075357898,-0.0003855356262321627,-0.0001696844210351406,0.00020959642862899627,1.240000000000002
0.007887886773029859,0.010903099563299368,-0.04581847615984748,-6.38474339909878e-05,-0.0011611082400977205,0.00016406964806776891,1.2600000000000051
-3.1560413547029875e-05,0.00016947081695749266,-0.00022113878225508976,0.0030135518658462915,0.016657159276343887,0.0008555734151568517,1.2800000000000011
,,,,,,1.3000000000000043
-0.0030021765964125258,-0.00045556786506857844,-0.0012804737662515525,9.733362630395814e-06,7.5849816263171e-05,0.003097820174510447,1.3000000000000043
8.323663175394125e-06,-0.0002945372526025891,0.0001770821286206357,-4.653134647595453e-06,-2.0088173437460277e-05,-3.893511383422192e-05,1.3200000000000003
0.00023467697518946874,-0.0006770184204482645,-0.0007662090124971738,0.0012641027287761536,0.0013072317036057664,0.0012642706286309716,1.3400000000000034
-2.1233919283401848e-06,7.878291863390452e-06,-0.0001452312294198295,3.166557839561629e-06,4.210741315291075e-05,9.565005149972383e-05,1.3599999999999994
-0.00023412245640912384,-0.0010126154286747384,0.0003031791862765086,0.0004305713230901495,0.00031644015120724234,0.00011207967236995849,1.3800000000000026
,,,,,,1.4000000000000057
-1.4169252403072041e-05,-0.004106422250882782,-0.0030443943987334757,-0.0002559841475267971,-0.0004299549565432645,0.00029924743417454147,1.4000000000000057
5.41853970619996e-06,-0.0001814291349950918,0.00010774853292184333,-4.6387501637275286e-06,-2.472010560207981e-05,-2.702421397362398e-05,1.4200000000000017
-6.268891568971674e-06,1.2669625504498766e-05,-0.0002179935185314813,4.5045857360401925e-06,5.579429224663798e-05,-4.671314119329001e-05,1.4400000000000048
-1.6369090889513382e-05,-0.00023448396432499546,0.0036268608079290253,0.0009434828523219307,0.0006144410795590055,0.000694995625988494,1.4600000000000009
-0.003964180672170662,0.013605280918437952,0.0015404753593159896,-6.083411537665534e-05,-0.0010100727370187038,0.0004330378685834524,1.480000000000004
,,,,,,1.5
0.0002065692950195151,-0.007402187904078294,-0.00013291431741355164,9.270851098128197e-06,0.00043772445821479294,-5.746271017274124e-05,1.5
0.00029111924010076853,-0.0006728249905242831,0.0004259612813024404,4.244096271078385e-06,-1.3428794868711874e-05,-4.795010039044048e-05,1.5200000000000031
0.010382470648665909,-0.0013914686622156587,-0.0002784688894987784,-2.051649740390793e-05,3.4705583423548514e-05,0.000630297184191525,1.5399999999999991
-8.416399540943104e-06,-0.000331033815853857,-0.001184044303621793,0.01450305701710538,-0.0012802444511732045,0.0005396323795182484,1.5600000000000023
-0.019677214329862067,-0.0018667070696568658,0.0007403174867143519,-4.0066540089121055e-06,-6.75576927354777e-05,-1.6709966514309726e-05,1.5800000000000054
,,,,,,1.6000000000000014
-0.01225514246243634,0.010987327313796699,-0.001207929520929369,-0.020232135534255118,-0.006972751673759655,0.005316379198246162,1.6000000000000014
1.5780539692859807e-06,-0.00021880863288593552,-0.0010907851743174636,0.0005973124366360442,-0.0001160962089218516,0.0005394072287242258,1.6200000000000045
-1.742380133624294e-05,-0.00015430267264813016,-0.003464055803560656,0.019456392780544084,-0.002629896987253784,0.00026770921511747037,1.6400000000000006
0.0004663124725844403,0.000806742494834492,-0.00022334228228022487,-0.0002900031079144001,-0.0009489837360206581,-0.0005128820113843753,1.6600000000000037
-1.5894670065963457e-06,0.00010614782348013219,7.77977728443225e-05,-2.937474702088133e-06,6.719094430670397e-05,0.000301129952173268,1.6799999999999997
,,,,,,1.7000000000000028
-0.0003982402874077376,-0.0008298949659614474,-0.002670934293770768,0.03512902236531898,-0.0016162126200257101,-0.019922366038147787,1.7000000000000028
-0.0010505287961860947,0.0011540932243490655,-0.00032155718582694247,-5.1024766676288635e-05,-0.000781862134433535,-0.00018144879103930076,1.7199999999999989
-0.001972238122727156,-0.0002891852540123363,-0.0012779912042043574,8.179674524663727e-05,0.00020717160625133985,-0.0002149126828122315,1.740000000000002
0.00848097048796947,0.008871625805153296,-0.002789433548649644,-1.614167680511966e-05,-0.000118680816175179,6.819795303052156e-05,1.7600000000000051
-0.001229368712615548,0.0005918145482125582,-0.0003585520064451255,-5.216097875091093e-05,-0.000637969345542104,-0.00017184127969599103,1.7800000000000011
,,,,,,1.8000000000000043
-0.0011485048363968659,0.019133245711041472,0.0009348295893971681,-4.333125780387956e-05,-0.0006063544367584904,0.00017251617066010166,1.8000000000000043
-0.0001089386431328658,-0.00023672836113917267,0.00010939873293399835,2.5885311197994254e-05,0.00023315592997631002,0.0016362584555116404,1.8200000000000003
4.241491126377728e-08,-0.00021927761818760563,0.00013897324206357808,0.008226044194951064,-4.8468015299389655e-06,6.500005950444906e-05,1.8400000000000034
5.955044694402889e-06,-0.00011629436933654341,0.00437861453587936,0.015951765273478805,-0.0015507853414487723,-0.00010559796740746731,1.8599999999999994
0.0006330475607719674,-0.008317852253298973,-0.002051610826265792,0.000582836177844881,0.00026855554504429287,0.00042106798206471147,1.8800000000000026
,,,,,,1.9000000000000057
0.0009957839886474106,0.0009270814797140078,0.0008201432651088261,-0.0004349505781933334,-4.2880731476735434e-05,3.439422051262214e-05,1.9000000000000057
-0.0007678570817596722,-0.01647139670242366,0.00012911217979818743,0.0049563009925983025,2.8909265114077966e-05,0.0001629136602254895,1.9200000000000017
0.004057408385582349,0.021961535945630772,-0.0008316704238526332,-0.004098766496962118,0.005861590048430952,-0.020307459113339494,1.9400000000000048
-2.694270674856447e-05,0.0001919849453229025,0.0023077062152925282,-0.0003991635441762814,-6.336721883160729e-05,0.00016050985946534582,1.9600000000000009
-0.00023578965411038362,-0.0006941895821428947,-0.0018962696355960178,0.021402725389916884,-0.0005405885241932633,0.000607133990206718,1.980000000000004
,,,,,,2.0
-0.0013736294482138492,-0.0005060219813027636,-2.8379072232447705e-05,-0.00015023014978625404,6.4878019506234286e-06,0.00012847521639169218,2.0
-0.0002426605658991058,-7.547545936319178e-05,0.0027579405131596805,-1.0660756276356653e-05,-0.00027430816010588777,0.0003321183855283655,2.020000000000003
-4.1820151511485354e-05,-8.838732603344557e-05,-0.0035619940119421822,-1.2161179862794913e-05,0.00010754146769711374,5.748916781548284e-05,2.039999999999999
5.4089418825575136e-05,5.46237087841947e-05,0.00012393861411427558,-1.1214310722724302e-05,-5.8674840556025704e-05,5.079384520175617e-05,2.0600000000000023
0.0007167479452546213,-0.02058253416061883,-0.0006025441006363734,1.6333204596596929e-06,0.00012038154815832008,0.0011384929993179926,2.0800000000000054
,,,,,,2.1000000000000014
1.503593407394671e-05,-2.6359188863289695e-06,0.0010123020968892706,-4.221034605959156e-06,-1.9289716866686263e-05,-2.526094260852079e-05,2.1000000000000014
2.833922588079546e-06,-0.00016336216499748465,7.516753154018785e-05,-2.4238996829337167e-06,-9.084451717865025e-05,0.00014286097820279814,2.1200000000000045
6.271019435247216e-06,-0.00020085696830596939,0.00021771339523112693,-3.0573249220622323e-06,-0.000147503610177048,-4.060435584051121e-05,2.1400000000000006
1.4553632028513341e-05,-0.0002644407617309469,-0.0011641599368295424,2.095446474593282e-05,0.0004284091230840059,0.0009791548777558189,2.1600000000000037
-7.468416533775585e-05,-0.000432702561916954,0.00029346451178721613,0.0004209090238573611,0.0005448623015064692,0.00039032437466740566,2.1799999999999997
,,,,,,2.200000000000003
-0.0009954716147824519,0.0008036493783426316,-0.00024271289331545022,-0.00022807263746134343,0.00017165684051208968,-0.0006027157348475892,2.200000000000003
-0.0003502622760574933,-0.0006780633764294428,-0.0018418093779898961,-0.0009315984342469579,0.011513572209543955,0.0017303947411514455,2.219999999999999
7.001913378119895e-05,7.37806578601577e-05,9.131782263076954e-05,-6.766721209199023e-05,6.404817759109172e-05,1.3937792588670367e-05,2.240000000000002
0.0001420262798347352,-6.726787487099095e-05,0.0004671705420297651,-0.01194783279815594,-0.0004865285545451975,0.0007566179134812327,2.260000000000005
-0.0021412700926263218,0.01446160788958769,0.0004112531446233969,0.02424862432773487,-0.0023648613968108023,-0.00019072486225919089,2.280000000000001
,,,,,,2.3000000000000043
-0.013246476450342826,0.006297413801881317,-0.0015940528522062868,-0.0001562833852364956,-0.00011800928966588381,-6.94658034767928e-06,2.3000000000000043
1.9219115237285866e-05,-6.675599935343501e-05,-0.0006077361667184145,-1.2856694811767475e-05,-0.0002485197652259217,-0.00016920751393136653,2.3200000000000003
1.3904991402607925e-05,-0.00023085524422515602,-0.0028644540464123174,-1.5187586231913547e-05,-5.44518298200361e-05,0.00030842080802120746,2.3400000000000034
0.0003678591363487395,-0.016132474072471398,-3.184626190732426e-05,1.5042969072689982e-06,2.6138860836851657e-05,1.0765442299572221e-05,2.3599999999999994
-0.00034077598180140556,-0.0004886351368854139,-0.0016318631380066832,0.00034028211168377065,0.00018121814551441337,-8.008733676554726e-05,2.3800000000000026
,,,,,,2.4000000000000057
-1.1195834441424246e-05,0.0001821633459448621,-0.0018041472800103264,0.0006701211278214573,0.0005103459289691236,0.0005189546570587983,2.4000000000000057
0.001291297362535991,-0.03733510491146949,-0.0013740380348056368,0.012675231098708162,0.019229763271981823,0.00047777251812172045,2.4200000000000017
-9.810668232732023e-07,-3.375277278424432e-05,-1.545427619135259e-05,3.883835548453007e-06,0.00024003761424316872,4.0256590394215086e-05,2.440000000000005
-0.0006870771080201392,0.00018499570778621188,0.0005063425723516313,-1.5420151430155238e-05,-0.00047714876640453374,7.045362540101033e-06,2.460000000000001
-0.00021359117174608172,-0.00022515566901901846,-0.0010711704803325634,0.0039556978162023654,0.017424094820301127,0.0004459174269937846,2.480000000000004
,,,,,,2.5
-0.015593410610057444,0.008921526070169356,-0.0002800767013392026,-0.00037240312041416854,-0.00010560755017170742,-8.015245443598103e-05,2.5
-3.2815084781007142e-06,-0.00022432752357771923,0.00012344666746411798,0.010461475032958734,0.01033963722516959,0.0005388939655954217,2.520000000000003
-5.2381755306592226e-05,-7.506941701287267e-05,-0.0001632651055110887,9.551662870914412e-06,-8.686828888625209e-05,-0.00017813639007198054,2.539999999999999
-0.0002147668259859653,-0.0008078658961240513,-0.0006937020503944569,0.0012376087638056726,0.001013389470886722,8.692751560269605e-05,2.5600000000000023
0.00031234253346177493,-0.01876750455466834,0.0004071053205786622,1.115980629108615e-06,-0.00013057595037267028,-5.7362619593531033e-05,2.5800000000000054
,,,,,,2.6000000000000014
-7.471500673039699e-06,-0.00036625310533316274,-0.0005378366741420962,-1.8582852061105326e-05,-9.511971412170389e-05,0.0003072838047470973,2.6000000000000014
-6.430784745253132e-07,-0.0001628238577359685,-0.0026561604623953905,6.237955158389097e-07,3.163564446993089e-05,0.00016460971783065215,2.6200000000000045
1.6087386768837142e-06,-4.547061688212409e-05,-9.06149773186142e-05,6.822161174140084e-07,0.00011323536705246454,0.0003341796144985046,2.6400000000000006
-0.0022200971886704836,-0.00011584199894104467,-0.0006016351314274623,-1.3804516855037141e-06,0.00020373195353463533,0.0007615962518340569,2.6600000000000037
-3.795131365769144e-05,0.00015315958713071898,-0.004856645463993752,0.0029825378674601458,0.0001337538008236161,0.003843698393712543,2.6799999999999997
,,,,,,2.700000000000003
-0.0007857898205907779,-0.0009453983734584274,-0.001011260509652858,0.004624542692554991,0.0016997280057477332,0.0012348990879203188,2.700000000000003
-2.1160149912893833e-05,-0.0002169430453248869,0.0006436254614647524,0.00039798576386736173,0.0006577674380534235,0.0005354039690900828,2.719999999999999
0.0005227494347031895,-0.018369099818235042,-0.0003243284387555098,1.9872742594642667e-06,-0.00013755571856598897,0.016531384136947203,2.740000000000002
2.418664919498492e-06,-0.00021433164607590448,-0.001898416343673534,0.017161996277100387,-0.0019158329681177634,-0.0007791799660373418,2.760000000000005
-0.0013773562764399089,-7.570013327411196e-05,-0.0005231363367535682,0.011255311829560716,-0.0026896143759287316,-0.00045450796329859697,2.780000000000001
,,,,,,2.8000000000000043
2.836727919980353e-06,-0.00022399616524332658,4.5670757627172195e-05,-3.3638039807562525e-06,-7.538768746838398e-06,2.1720382113082307e-05,2.8000000000000043
7.893601315187015e-06,-0.00011834078170286366,0.005412646606034332,-2.4231267755081554e-06,-5.7325605523017575e-05,-0.008455184591644684,2.8200000000000003
-0.00015352532157244733,-0.000756166631866383,-0.0007986258398110235,0.011604269649599583,0.0006944507968915381,0.0010325222188893694,2.8400000000000034
1.3713133976245295e-05,-0.0003381579447775396,0.007808812829833623,-7.30000615105364e-06,-0.00021634118735782554,0.00031491163475255365,2.8599999999999994
-0.0005794316015652959,-0.0005479662123822893,-0.00736956077096007,0.00020928584640142467,0.00027540422562026545,-0.009607158616987861,2.8800000000000026
,,,,,,2.9000000000000057
-2.007633948924309e-05,0.0004337055728888123,-0.0009176134019710271,-9.439282270956584e-07,0.0003855400717481042,-0.023279421088098978,2.9000000000000057
-0.0010459311797817276,0.0008129768848118349,-0.00024282975165108855,-5.6485246417152524e-05,-0.0007106266105440066,0.000154271820992258,2.9200000000000017
0.0002930285520439113,-0.006991496843002463,-0.0003215414132594005,3.1956643077001023e-06,0.00015865213169555942,0.0004108793687163312,2.940000000000005
0.010455540067406007,-0.0005409060869724022,-0.00013405871368460387,0.019208975063663127,-0.002662843630375775,-0.00037818550458147346,2.960000000000001
0.00023310671534564759,6.764522537132389e-05,0.000288852525244819,7.427308142714945e-05,0.00024218837412764982,0.0001714658181558859,2.980000000000004
,,,,,,3.0
1.5531635383231324e-06,-0.00021622410441376333,-0.0018169932648024207,0.0004991806882285316,-0.012899903408833019,0.0006846380356964124,3.0
-8.24917061012509e-06,-1.6970354600145954e-05,-0.0005160111329257436,0.00037065558310732036,0.00027694081158721913,8.246963340860416e-05,3.020000000000003
-0.0011751055728232568,-0.00010309207296119172,0.004230917554807966,-0.00011398097528227648,-0.0016099693943638857,0.0004943886263919679,3.039999999999999
3.2365472523485095e-05,-0.0005943555645065261,-0.03627608602251238,-2.615245609263739e-05,-0.0026217302594793226,-0.00015294360187212766,3.0600000000000023
-3.07905534056188e-05,-0.00011946458630295313,-0.017353864350668633,-1.0821384973200288e-05,-0.0002074333579416797,6.860793739352916e-05,3.0800000000000054
,,,,,,3.1000000000000014
-0.000107674174023738,5.000015314217702e-05,-0.0011558212593468127,4.081892954975984e-06,8.631351968059735e-05,-0.00018091320826537152,3.1000000000000014
3.4123261210550204e-06,7.218966401195681e-05,0.01491319417338399,6.9513828859155136e-06,9.034179373774986e-05,0.000262735884193295,3.1200000000000045
7.392517485625694e-06,0.0002748513191108831,0.00034616895563544664,-0.00016330220755941469,-0.0004453364278200131,-0.01913225311519964,3.1400000000000006
-0.001619808411481495,-0.0007636893879236911,-0.013525618722129668,0.01832747776429076,-0.0038837842346481216,-0.02314880175339589,3.1600000000000037
7.600659453758929e-06,-0.0003541203501898557,0.00020206911076398396,-5.078884109568048e-06,-0.00024371125427384002,-6.43792290333494e-05,3.1799999999999997
,,,,,,3.200000000000003
-7.647117108776618e-06,-0.004423257750952396,4.459317918746944e-06,5.215283161993673e-06,2.226024625784275e-05,0.00015701158898242954,3.200000000000003
-2.475644537315927e-05,-0.00029696954922720994,8.929306123801883e-05,-2.4999219104746007e-06,8.920359443482379e-05,-0.00977744039990494,3.219999999999999
-0.00035833644785235666,-0.0008463806872119062,-0.0006033431576837958,0.001362793639869693,0.001120390154503506,0.000302418970291405,3.240000000000002
0.00030035630672297503,-0.013189867261360073,-3.065748417138692e-05,5.100622894708973e-07,2.4147290273293653e-05,-3.4309954649178014e-05,3.260000000000005
-7.054635394351111e-06,-8.08558551952214e-05,-0.00031506339131470024,0.006502353918003465,0.005096577027324422,0.0002965456724513902,3.280000000000001
,,,,,,3.3000000000000043
1.3099066548368302e-05,-4.526103347824578e-07,-0.001367366898719715,-3.040189051312092e-06,-2.7904629298828795e-05,2.1769839431459714e-05,3.3000000000000043
-0.0003683454668377932,0.0004985748382087297,-0.001329674568221622,0.00036278732822645626,0.0005032677741174524,-0.0006839616041113749,3.3200000000000003
0.0028343457066701805,0.024877378072219587,0.000636577976384424,-5.6794675161869757e-05,-0.0003745799987514703,9.041771996673702e-05,3.3400000000000034
-2.8242566062614688e-05,-0.016056415612146987,-1.7397888422740482e-05,-6.513595655355427e-06,3.5682536520999925e-06,0.00023044753356383368,3.3599999999999994
1.8773424891468937e-05,-0.0002279840650937226,-0.0016460887588970428,-1.7462896198198324e-05,-0.00010100104849941789,0.00010142230673896094,3.3800000000000026
,,,,,,3.4000000000000057
8.152222869137193e-06,-4.4289396220746624e-05,-0.002883003423916071,-2.513949885478428e-06,-2.4060089703212967e-05,0.00022992408089239635,3.4000000000000057
4.02162607516382e-06,-0.00021522643014638965,9.675610374042937e-05,-3.4942252462553947e-06,-0.00011240313811025637,0.0001876261352395034,3.4200000000000017
-0.00022587818689191047,-0.0006512380192022493,-0.0006025029276411804,0.0012138790842295653,0.0010164684763066534,0.00028875340664983803,3.440000000000005
-1.050926794440854e-05,-9.52526106831747e-05,-0.00014580141600297955,0.017307460923732296,-0.0009441556295566658,1.9993896887841173e-05,3.460000000000001
5.063808464794706e-06,-0.00010605163551946628,-0.020775792841453918,1.330103593266685e-06,-7.944551888103973e-05,8.053639957308206e-05,3.480000000000004
,,,,,,3.5
-5.498210865595432e-06,0.00010983096093559325,-0.00025277210620275326,1.0619822343002627e-05,-1.0225543542886906e-05,0.0003221884699398242,3.5
-0.001224387934475813,-2.9191410710775745e-05,3.5772148887260047e-06,-2.332098726596024e-05,-0.0002419520797576416,-1.1273183231245293e-05,3.520000000000003
-0.0003605312165140401,0.0009018745255494585,0.0007697153353291228,-2.9930344745876872e-05,-0.00022447012092233383,0.00046914548023475194,3.539999999999999
-3.3493973415066325e-06,1.2680125947711618e-06,2.1556975676652584e-05,1.558473927398829e-05,0.00018057313323734114,0.011702295497923162,3.5600000000000023
-2.8773740806752046e-05,0.0007800262634027749,0.0008121938544971632,0.026636139035427924,-0.0008890754387549382,-0.00015428463723371824,3.5800000000000054
,,,,,,3.6000000000000014
0.00013217577623920312,-0.0005458224320449845,-0.002675927765733196,-0.00013817171428411046,6.807450009048421e-06,0.00036782278504777794,3.6000000000000014
-0.00011437232242343838,-0.0074689084384275415,0.021059440422075307,0.00046711116074913545,0.0013497993707058294,0.00040896941304006257,3.6200000000000045
-0.002508705806106619,-0.0010557533939567557,1.920569471733271e-05,0.000912829485629145,0.0008545787926090773,0.0005416506822391084,3.6400000000000006
7.692317154517911,7.692355684768257,7.692415897097374,7.69230098342921,7.692198696528359,7.692260352954177,3.6600000000000037
7.692307926620432,7.692263593939225,7.692198560907775,7.692312237191978,7.6923078504044895,7.6923190976458455,3.6799999999999997
,,,,,,3.700000000000003
7.692491642989063,7.692148266776463,7.691341813431451,7.69197167355767,7.693175611658142,7.693038642461026,3.700000000000003
7.692308764969316,7.6922824823148535,7.692251405223096,7.692311811271022,7.692327855108392,7.692313361197961,3.719999999999999
7.692346994862219,7.692243768680213,7.692224994085945,7.692310716966952,7.6922952839993135,7.692302035634457,3.740000000000002
7.692278780351158,7.691973161247981,7.691751049027227,7.692555793955766,7.693845133940832,7.691655002396692,3.760000000000005
7.692310834975944,7.692120409743405,7.691939714485901,7.691506646042696,7.695068085287722,7.692454718757801,3.780000000000001
,,,,,,3.8000000000000043
7.692317239571599,7.692112427620624,7.691920806502807,7.691934836242632,7.693405992064198,7.6925865267516205,3.8000000000000043
7.692303279205559,7.692258155714601,7.692155486611413,7.6924369565505,7.692081535028642,7.692248080779772,3.8200000000000003
7.693741123973917,7.691196014740716,7.691631055298942,7.691674319637611,7.693283188982191,7.692526570886181,3.8400000000000034
7.692300444232488,7.692324633609248,7.691780528043007,7.692537193698902,7.692564894132688,7.692319684583695,3.8599999999999994
7.690953738585411,7.693441824070051,7.692968647307315,7.692478985017699,7.690704402705991,7.691864123405184,3.8800000000000026
,,,,,,3.9000000000000057
7.692354784250051,7.691474003083094,7.692688324661438,7.692307645153325,7.692110094736106,7.692054414867209,3.9000000000000057
7.708160388730422,7.693041557177047,7.691117742228721,7.69222982809755,7.692009826198394,7.691814055301571,3.9200000000000017
7.6922616476570145,7.692080508958948,7.691451556290024,7.69298949573945,7.693056327132561,7.692769322622663,3.940000000000005
7.692293824841069,7.691876876356348,7.690048413459117,7.692293952501612,7.6922871362832,7.692271490194196,3.960000000000001
7.762619656031284,7.684243403107964,7.693719363778567,7.691294462170513,7.691619289097724,7.692207158690109,3.980000000000004
,,,,,,4.0
7.692422508276613,7.6917814116373515,7.69148508098484,7.691982248912381,7.693059940643828,7.692203426850806,4.0
7.693046257645166,7.6933592353920135,7.6905660772334326,7.701835090490597,7.6913837731705685,7.692664395275023,4.020000000000003
7.691995185055408,7.691865913242615,7.691782198620036,7.692294640653711,7.6918755910658225,7.692068443594923,4.039999999999999
7.6923138439846355,7.692181411326969,7.69179667798295,7.6923042702143665,7.692228522416668,7.692341607728008,4.060000000000002
7.692255440618445,7.682547899887213,7.691862768178965,7.6931896794358545,7.693038070929223,7.692514829956612,4.080000000000005
,,,,,,4.100000000000001
7.692676961044812,7.694263713883392,7.693876134108093,7.690310402097108,7.690573120784526,7.691968778237454,4.100000000000001
7.692284156069016,7.691918863377915,7.692006501258569,7.693527766908772,7.6935309999857555,7.692444736471577,4.1200000000000045
7.692298868149084,7.6921044199821385,7.6919037264050045,7.693858947289427,7.693202108378237,7.692585708233709,4.140000000000001
7.692301036882273,7.692415701248757,7.69186544400865,7.692548275752707,7.6925111731947595,7.692288332095197,4.160000000000004
7.692313828582546,7.69229407932737,7.692566853096131,7.692313807124062,7.692515157811544,7.692370853683197,4.18
,,,,,,4.200000000000003
7.692307185953946,7.692099822220467,7.689337563687609,7.692306123655315,7.692931167145117,7.691967748182079,4.200000000000003
7.6923025353542736,7.692087932089055,7.6904497988044405,7.692347136412283,7.69237434831283,7.69247702832414,4.219999999999999
7.692277612570958,7.693736909970517,7.693550284084926,7.692238563769935,7.681665942787632,7.692354186189152,4.240000000000002
7.692369488596965,7.692507720456867,7.6922496383172385,7.692375827881403,7.6922645476165625,7.691681748254741,4.260000000000005
7.692328856479364,7.692755037743152,7.692753297603124,7.692141810201175,7.690876900630849,7.691887548099964,4.280000000000001
,,,,,,4.300000000000004
7.69231737080474,7.6923584719587055,7.6923711821554335,7.69230634570753,7.692405656050971,7.692818290472832,4.300000000000004
7.69227878553702,7.692093170110082,7.691940692532795,7.691917670130106,7.691515689396443,7.692044309000098,4.32
7.692289960893559,7.68763831920063,7.691973880398132,7.6923167093003375,7.692468435558403,7.692565899408704,4.340000000000003
7.692328089135239,7.692127275771107,7.690455258175587,7.692314630667809,7.692286028515806,7.692571053603189,4.359999999999999
7.692182495275589,7.692504020559981,7.692632765528974,7.69225792056118,7.6698767529285785,7.691831122575869,4.380000000000003
,,,,,,4.400000000000006
7.692085933400137,7.692385543978736,7.689998923389273,7.692317322562933,7.692009876165354,7.692101941562972,4.400000000000006
7.692255588693577,7.692762651815405,7.691184812425787,7.695226205398323,7.695994308235088,7.692197850835957,4.420000000000002
7.69230776701463,7.692267960800607,7.692349578794114,7.692309019500329,7.692356871814792,7.692332465455384,4.440000000000005
7.6923129738275895,7.692277296991925,7.690754862952353,7.6923135822175395,7.692428042214649,7.692300693844932,4.460000000000001
7.692286435259314,7.6931951156792655,7.693704280639909,7.686143852103643,7.682941696889089,7.692239801910749,4.480000000000004
,,,,,,4.5
7.692439093942802,7.69254544390998,7.692601994940053,7.692369371579428,7.691811714497329,7.692258614867806,4.5
7.692307712472437,7.692217430677282,7.691523514184285,7.692473438477624,7.692590138539937,7.692875209068656,4.520000000000003
7.692247612161429,7.654123304156163,7.693404022937739,7.692318007367876,7.69218958253988,7.691639518651025,4.539999999999999
7.692310401558045,7.6921526994991,7.690611391529775,7.6923084301114155,7.692162958589117,7.694225292146407,4.560000000000002
7.692310504198564,7.6923148537636745,7.69239640203779,7.700304816358995,7.69218553428576,7.692299278439442,4.580000000000005
,,,,,,4.600000000000001
7.6922922138599725,7.692002251315434,7.691758218000799,7.694416927328039,7.693755014101887,7.692609154091437,4.600000000000001
7.692311936662976,7.692181789985007,7.6920047824481355,7.692344341664916,7.693444271352627,7.692678157150009,4.6200000000000045
7.6923104443827555,7.69242127193071,7.692659856072066,7.692298616728777,7.691997762418457,7.692193930000842,4.640000000000001
7.692479915953413,7.692952117426036,7.692552717698897,7.692296215074605,7.696468215623984,7.691981945220597,4.660000000000004
7.692314264986889,7.69228886580364,7.6921813977154345,7.692318296202051,7.692490207208733,7.69244551394978,4.68
,,,,,,4.700000000000003
7.692295511678815,7.693298945073052,7.691719305557127,7.692288876888673,7.692635582202998,7.69457734119321,4.700000000000003
7.692219620515729,7.653080750112584,7.691958201048605,7.69227209070449,7.692338112265946,7.692715344370912,4.719999999999999
7.6922695992777514,7.692497172946547,7.692412513865189,7.692234769944861,7.692196018965994,7.6922833103911366,4.740000000000002
7.692466719082223,7.692547835483348,7.692587180106517,7.692182296412736,7.692138260145039,7.692068366597974,4.760000000000005
7.692447199892395,7.693371405398405,7.693151434580336,7.691145815223498,7.691466719461299,7.692071870209335,4.780000000000001
,,,,,,4.800000000000004
7.692247360617179,7.69175294928681,7.689941825879662,7.692372768040278,7.692749697565156,7.696383638388426,4.800000000000004
7.692321258402836,7.692301677401195,7.692210673311471,7.692296242002035,7.692396376702151,7.693116834782668,4.82
7.692301832083586,7.692209045760908,7.692075711018427,7.693156382701961,7.690909772301403,7.69260332184145,4.840000000000003
7.692299101145871,7.692037660742664,7.69198910795351,7.692301603467391,7.692356978851169,7.69209919960414,4.859999999999999
7.692316608740764,7.692295493619355,7.692525590948836,7.692306169291068,7.692275480240155,7.692289560968047,4.880000000000003
,,,,,,4.900000000000006
7.692625920219923,7.692615524136333,7.692706213482342,7.692335725895596,7.690959674767564,7.692155511769747,4.900000000000006
7.693403805319816,7.694430462629861,7.694293029413903,7.69225101398915,7.691509052241278,7.692198519331999,4.920000000000002
7.692331107790242,7.691776327170977,7.689488495867997,7.6922779423337655,7.692841906015325,7.689988002095602,4.940000000000005
7.692506715727931,7.693077760569868,7.6926945461816345,7.6922986941410105,7.692229019559565,7.692258409516533,4.960000000000001
7.692303513510085,7.691548923840812,7.693468750807122,7.692306545685727,7.692229661884117,7.692440848524166,4.980000000000004
,,,,,,5.0
7.6927127282903225,7.692676921871833,7.693092467001725,7.692286796214556,7.691968753678259,7.692367982852184,5.0
7.692984583875878,7.692927152508599,7.693416601702064,7.692276147930581,7.692089780759685,7.69280306072999,5.020000000000003
7.694723251445776,7.6944410416601485,7.694141694768208,7.692288657016602,7.691665878975009,7.692031498654336,5.039999999999999
7.692302393819943,7.692240626372346,7.692164530314322,7.692307641783832,7.692293981319751,7.692229231072668,5.060000000000002
7.692308649264684,7.692356234675854,7.692422127882832,7.692306269245577,7.692358588369051,7.69230662557145,5.080000000000005
,,,,,,5.100000000000001
7.693993955977389,7.693346585618885,7.693202206608785,7.692345424990751,7.692992160404873,7.692459294127441,5.100000000000001
7.6951637533245485,7.694994364698713,7.69447516269094,7.6932253796302374,7.690342763859599,7.691975023784732,5.1200000000000045
7.69408660948082,7.6932275000936015,7.692671811503098,7.692254482224604,7.692249592109979,7.6931450963120875,5.140000000000001
7.6923194476779875,7.692352636185843,7.692364820194113,7.692329110657071,7.692486063329406,7.69241340359637,5.160000000000004
7.693780611703286,7.693151205621192,7.692322490380069,7.692726401120087,7.690759561050551,7.692240907010959,5.18
,,,,,,5.200000000000003
7.692316077982683,7.692212302579692,7.69186457724245,7.692316286176077,7.692178485459937,7.69131065828752,5.200000000000003
7.6923161368172615,7.692455340444818,7.6926404144668545,7.691837571740029,7.692746866680115,7.6925189963079,5.219999999999999
7.69230885066778,7.69222516205157,7.692084415990662,7.692309444366597,7.692368214702678,7.692237398428584,5.240000000000002
7.694301666064256,7.6934001658832285,7.693177986323776,7.692769517861029,7.691427175500506,7.691749642300393,5.260000000000005
7.692309451354394,7.692106970912558,7.692105111264813,7.692331286561533,7.692505320131582,7.692229349165262,5.280000000000001
,,,,,,5.300000000000004
7.692319104385996,7.692211835697902,7.691848822932588,7.692316773055539,7.692179270056705,7.691641594153176,5.300000000000004
7.69537747500786,7.693768374868049,7.694019675098574,7.69223966722697,7.691972393512567,7.693242039322031,5.32
7.692310197955815,7.692312904725835,7.692502982930099,7.692141879105503,7.692565382796135,7.692450430855419,5.340000000000003
7.692313204731234,7.692507935943593,7.692762463486812,7.692208808403377,7.692095017368549,7.692249585264863,5.359999999999999
7.692318958543925,7.692198284509588,7.692585354390567,7.692303586788436,7.692429299484252,7.6921963187559665,5.380000000000003
,,,,,,5.400000000000006
7.692313551119911,7.6925892250467385,7.692556715617674,7.692281959791466,7.692390701196643,7.692328801852292,5.400000000000006
7.692305374630456,7.692471494126739,7.692411161015604,7.6922999121497915,7.692215019465408,7.692264376856296,5.420000000000002
7.702926983782795,7.692747428785467,7.693176775189699,7.692463236388548,7.691621634559898,7.692266315583269,5.440000000000005
7.6918794193796405,7.6900094527087095,7.6937756193110935,7.692287139598802,7.692161551747678,7.692703738825247,5.460000000000001
7.692292129335959,7.692500036740823,7.6918549376050755,7.692320187075402,7.692166990995434,7.6920901673072475,5.480000000000004
,,,,,,5.5
7.692315333124658,7.692760455721403,7.692113834457803,7.692294112085282,7.692582538741258,7.692118994616955,5.5
7.692272543749018,7.691441663535666,7.691390802345904,7.692357070098251,7.692713473524585,7.692229467371267,5.520000000000003
7.692306155624725,7.692330093776091,7.69231915001711,7.6923115691179795,7.692240409070034,7.692250861371382,5.539999999999999
7.692329034287582,7.69220501945181,7.6773256547331385,7.692190084566651,7.692767012885414,7.692452113449019,5.560000000000002
7.692303545239962,7.692211704609255,7.692057392521519,7.692307794586803,7.692414428655675,7.692264533497071,5.580000000000005
,,,,,,5.600000000000001
7.6922935709577915,7.69201869876009,7.691856695365418,7.7212298117303275,7.693360597145811,7.69240165114949,5.600000000000001
7.692309935175677,7.6922550888884365,7.692088274541017,7.692292200572776,7.692122995721459,7.692292350784227,5.6200000000000045
7.692117567122922,7.6926089092677,7.693171088504701,7.692467797483071,7.691835408433313,7.6921512225843856,5.640000000000001
7.692296953473059,7.692196246769499,7.6921624231251124,7.7001334187269785,7.692541822691582,7.692330143622037,5.660000000000004
7.692332967071132,7.692274135330778,7.691545499025932,7.692291002508572,7.692578737912946,7.692323541920366,5.68
,,,,,,5.700000000000003
7.6923060093735565,7.692258389918129,7.692183515882319,7.692303704033499,7.692312865648873,7.692336370995762,5.700000000000003
7.692348611543793,7.692229421823007,7.691738674412348,7.6922971017073225,7.6924998594623855,7.693011827802646,5.719999999999999
7.69230468450593,7.692211884518714,7.692080684964956,7.692307965910172,7.692392166734602,7.692341926819615,5.740000000000002
7.692325161756718,7.692541067928943,7.692667749640692,7.692309893600335,7.69219007975183,7.692223924233434,5.760000000000005
7.6921937163781395,7.692558195717333,7.6924208286871405,7.692296070080403,7.692400704599176,7.692098437851459,5.780000000000001
,,,,,,5.800000000000004
7.693220833094767,7.69144191668791,7.691039629727857,7.6940788216831315,7.69481732868019,7.6925013460080915,5.800000000000004
7.692654426372654,7.691622892053029,7.691866966296066,7.692532661887601,7.692768806076616,7.692572377974475,5.82
7.692278897113881,7.692416024259754,7.692467571478353,7.692322754124399,7.69254433389853,7.692237938080006,5.840000000000003
7.692296323542893,7.692305287869596,7.6916473746397225,7.692332177200953,7.69206967362119,7.692381055454392,5.859999999999999
7.692285004525759,7.692317194041447,7.691672880882896,7.691369883948901,7.693032549003092,7.692797512721065,5.880000000000003
,,,,,,5.900000000000006
7.69229798007946,7.692364612443011,7.691195006534321,7.692091507456305,7.692439808338952,7.69223820539711,5.900000000000006
7.692308673688637,7.692193824958593,7.692055799555746,7.692292196129611,7.682909933113702,7.6924316402064035,5.920000000000002
7.692506814576688,7.692286223271391,7.691322506821886,7.703633835444015,7.691505131727535,7.69316505754187,5.940000000000005
7.6922987252775545,7.69214847750951,7.692088340328833,7.717559574487362,7.692742548855724,7.692092542020442,5.960000000000001
7.692308614960684,7.692297740233974,7.692207047915768,7.692075979864291,7.692044700020316,7.692202336977602,5.980000000000004
,,,,,,6.0
7.6923161318354705,7.692178490826155,7.692908413292926,7.69231249456303,7.692458928051413,7.692100975537028,6.0
7.6923082498956346,7.692234114352572,7.692132219765014,7.703232880140847,7.6925938318155875,7.692410840570293,6.020000000000003
7.692324958986773,7.6924589936132195,7.688423402767676,7.692301403603619,7.692123381092861,7.692210567761085,6.039999999999999
7.692325161873486,7.691992213225864,7.692924095291983,7.704130917146698,7.670820344717991,7.692509063165235,6.060000000000002
7.6919928487322045,7.69293813084404,7.692954901202013,7.69229499762042,7.692567104103008,7.692480234126652,6.080000000000005
,,,,,,6.100000000000001
7.692177671083411,7.692550491759126,7.692601135756899,7.692506791946915,7.69252024021992,7.692438515602928,6.100000000000001
7.692318648394288,7.69233820083743,7.6924735666505795,7.692297374441903,7.692205227195367,7.692253880062293,6.1200000000000045
7.692086313572457,7.692652692145061,7.692323132370146,7.692312647632458,7.693030422939538,7.69212173237557,6.140000000000001
7.692284693452462,7.692201854075317,7.692227873845148,7.692788630008499,7.693277076735472,7.692476237297782,6.160000000000004
7.6920002533276115,7.6927396338467045,7.6931410808331915,7.6923793753955,7.692214961797499,7.692320442718366,6.18
,,,,,,6.200000000000003
7.692347392347234,7.6922876912217415,7.692912408222862,7.692293458836742,7.692714913875597,7.691740551275587,6.200000000000003
7.692638795438897,7.6920366691232545,7.691586349885511,7.719073582288911,7.717028884781568,7.692085675999484,6.219999999999999
7.692091212736045,7.692875057638775,7.691674430834262,7.692307752535417,7.6919401341176545,7.692008776152896,6.240000000000002
7.692280008656937,7.692205798343232,7.691427389555848,7.73890986485805,7.700276864990435,7.691686576207177,6.260000000000005
7.692293428784864,7.692171407400179,7.691841702562593,7.6922913937379755,7.692200988191253,7.692316581719343,6.280000000000001
,,,,,,6.300000000000004
7.6925026104620144,7.69206677328557,7.691928495287292,7.692294162924035,7.692220034797872,7.692205174938069,6.300000000000004
7.692332477922584,7.692169841523133,7.691383636842268,7.714751606336519,7.692351412755866,7.692233863696955,6.32
7.692290344138864,7.69250397802395,7.691203397294862,7.714233232909535,7.7132530516429245,7.691581818752669,6.340000000000003
7.691990514133659,7.6924569205005815,7.69270969783681,7.692034589810007,7.692635518752071,7.692543372322857,6.359999999999999
7.692336133300579,7.69189083261402,7.692411327328613,7.692318950078254,7.692448719181681,7.692379801654079,6.380000000000003
,,,,,,6.400000000000006
7.692314332510521,7.692319877346816,7.692367958950678,7.692298040317301,7.69221922092039,7.692316301420236,6.400000000000006
7.692326577844349,7.692292151897016,7.692146434464667,7.692303783352742,7.692361434103526,7.6806586755347634,6.420000000000002
7.692308364895541,7.692072092147202,7.691025089843969,7.692557889799202,7.691940432312405,7.695243086738922,6.440000000000005
7.692298362483338,7.692236993916171,7.692273371439812,7.692363288928517,7.692220459045852,7.692419252207952,6.460000000000001
7.692187877023168,7.692463909624924,7.6929621074851,7.69232996955103,7.6923226863914325,7.664724268211512,6.480000000000004
,,,,,,6.5
7.692298227388574,7.692290008390233,7.690385642188369,7.692310673916976,7.6923643724616095,7.6938462359112725,6.5
7.692293828706534,7.692301922825931,7.692607526388049,7.69228401784661,7.692671565010021,7.691805913245926,6.520000000000003
7.692308496568012,7.692227968912611,7.690563226367321,7.692733053181656,7.691526884694219,7.692813987567883,6.539999999999999
7.692297163454622,7.692286085562911,7.692510047817585,7.692173170093936,7.6926419495261324,7.692353500908745,6.560000000000002
7.692313422389214,7.692025977167553,7.690510945470551,7.692570918721774,7.691795540922491,7.686892882006863,6.580000000000005
,,,,,,6.600000000000001
7.6922993302998774,7.692168359755227,7.692112100520971,7.692320830109752,7.692243009967282,7.692449915163179,6.600000000000001
7.6923008551758825,7.692201629711123,7.692281435183312,7.692305581497778,7.69237410174833,7.6920650962217625,6.6200000000000045
7.691263277472759,7.692892014332795,7.692150450165752,7.692334000641069,7.692303121239209,7.6922628308242516,6.640000000000001
7.692361399168687,7.692287585115816,7.692326166230933,7.692301023593459,7.692237941139589,7.692332472350652,6.660000000000004
7.692329587410938,7.692184221772477,7.692322897606869,7.692318764362984,7.692350879238814,7.670468706274648,6.68
,,,,,,6.700000000000003
7.691913526837579,7.69285033374812,7.692470875752808,7.692308706768325,7.692288105256253,7.692287739388728,6.700000000000003
7.692073359542374,7.69237282591041,7.690445743060262,7.692318507330683,7.692361953576308,7.694319779324737,6.719999999999999
8.461531012751193,8.461380771829997,8.461328209308448,8.461551120505984,8.461645027706586,8.461512242982154,6.740000000000002
8.46120318191409,8.461917679119018,8.462348588870189,8.461589228084156,8.461492498556298,8.461482845278706,6.760000000000005
8.461032622270842,8.462208236774273,8.462294472369916,8.461554990340677,8.46146727295701,8.461525949343784,6.780000000000001
,,,,,,6.800000000000004
8.461539212364759,8.461388278430713,8.461204367352865,8.461546870506993,8.461682415206642,8.4619560731091,6.800000000000004
8.461522172696137,8.461448739700678,8.461326887785457,8.461637604861027,8.461433822453836,8.461503461763465,6.82
8.461501888089071,8.461227844835305,8.459698953434769,8.461552423576522,8.46155846062056,8.462132832372658,6.840000000000003
9.307972986581905,9.307429115993187,9.307359766802758,9.307690321339212,9.307699349237708,9.307667153433771,6.859999999999999
9.307707291548681,9.307685984080583,9.307875981339748,9.307703808748885,9.30784962656694,9.30769014846549,6.880000000000003
,,,,,,6.900000000000006
9.306544444441402,9.308908224886618,9.308140178795735,9.30752356591452,9.308126416370117,9.30779183127379,6.900000000000006
9.306560106631263,9.308877698090413,9.30867735828218,9.307701493316635,9.307975960348672,9.307987612975738,6.920000000000002
10.238450868063518,10.238329540265733,10.238181799867899,10.238461832587893,10.238543862236298,10.238455326636544,6.940000000000005
10.235811675757002,10.239601060683095,10.2398279180398,10.23861147668021,10.23834004242485,10.238557490437042,6.960000000000001
10.238437721300402,10.24205073616752,10.238216957528053,10.238446282820442,10.238677101942645,10.238617795999648,6.980000000000004
,,,,,,7.0
10.238475342234342,10.238681942076191,10.238818231115674,10.238518653104904,10.2383984687185,10.238416483444144,7.0
10.238454381877247,10.238207249037336,10.238501794621044,10.238468364056192,10.238532572240791,10.239206187515544,7.020000000000003
10.238491295747528,10.238288889199419,10.24190627771291,10.238473576697382,10.237927684868376,10.241264539298756,7.039999999999999
10.236833835507106,10.240016609812963,10.239699604261084,10.2385257704827,10.238283742618204,10.238928550212956,7.060000000000002
11.262303323493262,11.262489082534895,11.262364926051621,11.262333273676045,11.26269081617923,11.26233242569667,7.080000000000005
,,,,,,7.100000000000001
11.26231270420935,11.262168577747861,11.261912565557234,11.262329244427292,11.262377533932607,11.262483186650273,7.100000000000001
11.260840259303603,11.262997246199175,11.263886187507753,11.262385280485416,11.26191461074617,11.262857714381234,7.1200000000000045
11.262253921043166,11.261930394728896,11.26160113043544,11.301733712971728,11.26393316508829,11.26288371711128,7.140000000000001
11.262295811065417,11.262106637265594,11.261791963475108,11.262279690455221,11.262411133297034,11.262086238681634,7.160000000000004
11.262139427548554,11.262506789202687,11.262507084210746,11.262306915057144,11.262322165790854,11.262318712263044,7.18
,,,,,,7.200000000000003
11.262283555591724,11.262070645291654,11.262018976782572,11.29269445189498,11.277114465478803,11.263219870282793,7.200000000000003
11.262313496983198,11.262354538309113,11.262342389072836,11.262329959781914,11.262237803946835,11.241872734698191,7.219999999999999
11.262300512033105,11.263623089921236,11.262369909736782,11.262294778123497,11.26251681938169,11.261702887039123,7.240000000000002
11.262653981754136,11.262422802652463,11.261990465610621,11.27636624732456,11.262082483724232,11.262847888853477,7.260000000000005
11.262897305447632,11.262421487196416,11.266031579034914,11.262285687726699,11.262004378946736,11.264268216156399,7.280000000000001
,,,,,,7.300000000000004
11.262333043953694,11.262667836518814,11.263056600187225,11.25961880450084,11.262711514517383,11.262448652686263,7.300000000000004
11.262308891540057,11.26230024213794,11.262240260950104,11.262331104941982,11.262241599629364,11.243818769490401,7.32
0.0003513812409483702,0.002359150466409582,0.0009792249199352399,0.00019880176990882958,0.0003937276658453892,0.001124324322900272,7.340000000000003
-2.3702394050251208e-06,8.751423707727135e-05,0.0001481168806270472,0.0012431394409784524,0.000582886454233239,0.0003770614074171119,7.359999999999999
0.00022076086124799693,-0.0002533945985648753,0.001113169322799118,-0.0019698426342340536,-0.0008079715934125042,0.0002972880025868818,7.380000000000003
,,,,,,7.400000000000006
8.756776997801557e-06,2.3795538162549312e-05,0.00010326303523872093,-1.2011051754856616e-06,1.682532053443042e-05,-2.2460606744073575e-05,7.400000000000006
5.095256858815567e-06,-0.00026486795058273255,0.0011157029089620685,-0.002390639947620621,-0.0005610015767392729,0.0001612979105343193,7.420000000000002
0.0009714900132694881,0.0010805732541757096,0.0012038132749444541,-0.0018935347983712325,0.000245261667124963,0.00011853736249761715,7.440000000000005
0.0005623483449208287,0.0017084466554553208,0.001460169560148744,1.6802899948153982e-05,0.0005052438149509286,0.00020848030636136383,7.460000000000001
-4.710416778463955e-06,-0.00015721972689818758,-0.0003868986506287697,-8.1937889524486e-06,-3.2365794473410148e-06,-4.04404707868844e-05,7.480000000000004
,,,,,,7.5
2.505075696570755e-05,0.0004391300447964845,0.00013798391264188692,2.561928187372331e-06,-2.1132584606398108e-05,-0.00026758016081651625,7.5
6.408302105798125e-06,-9.142841304446425e-06,-5.028163400554175e-05,6.963764604683842e-06,6.688324386178168e-05,-1.7202065231591845e-05,7.520000000000003
0.0009688820430867051,0.0006460200230081481,0.0010458104043103156,-0.001159910146893789,-5.562311804191422e-05,-4.097526658591866e-05,7.539999999999999
0.0008901634252055229,0.0011819698271613305,0.0011987601411405924,-0.001112653654338852,-0.00044236011954107424,0.00019091336374443824,7.560000000000002
0.0009267049037834652,0.00010094224491594139,0.0005193992952240295,-0.0008362841994639936,0.0003387482727437441,0.00035740415896712285,7.580000000000005
,,,,,,7.600000000000001
2.1884141695613368e-05,0.0006016467960115388,0.0007094266450745554,0.0002582003533463939,0.0008993574723582809,0.0008764205030315775,7.600000000000001
5.431170194490631e-06,-2.5210082666475564e-05,0.0015629388256789,0.0004454331425702285,0.001280514174036601,0.0006627979079775193,7.6200000000000045
-4.169987753861737e-05,-0.0016377083654137495,0.0024755692831650543,-0.0010506598351980034,-0.0009600014286609837,0.005382154740819295,7.640000000000001
-2.8381341616590117e-06,4.007202864660803e-05,0.00012945406328514555,1.1359723833787028e-05,0.0002718205287992326,0.0002888802310367644,7.660000000000004
3.01404165459207e-07,2.3177061193112303e-05,7.557823900929822e-05,0.00018612911614726557,0.0006827559883876844,0.0003739286800028274,7.68
,,,,,,7.700000000000003
2.0093632327813915e-06,-1.8167304934660344e-06,-5.717887356289342e-05,3.5121982818603348e-06,5.917292870766255e-05,4.649569754577865e-05,7.700000000000003
0.00036653178645793677,0.0004958220461653423,0.000615203015040356,-0.000931426354826792,0.00011958016702157126,0.00011878923432766253,7.719999999999999
3.5359096652726185e-07,-2.798320961268537e-05,-2.723177773439507e-05,0.0004362124794584643,0.0022827426013517504,0.0011755022968661238,7.740000000000002
-1.3469144240566e-05,-9.26154469786944e-05,-0.00014478744577371694,0.0010679589468919198,0.002195717765677105,0.0012087544604152262,7.760000000000005
-4.192449105065721e-06,-7.483027152120625e-05,0.0001216043359774377,0.0008095041447447049,0.0020219633657347913,0.001218484917712405,7.780000000000001
,,,,,,7.800000000000004
9.9209298505612e-06,0.00021464658944470721,8.64311554820904e-05,4.818199082212704e-07,-0.0004009553506972019,-6.84633547709812e-05,7.800000000000004
0.00019737495679885905,0.0005396056535160454,0.000542192650378033,-0.00020753786978258693,-0.0001448377317121441,8.128188707205025e-05,7.82
8.301413595614843e-06,0.0002828109142730996,0.0002934778071131631,0.0005625529277134694,0.001038609802610009,0.0005753050375303416,7.840000000000003
-1.8285789430333432e-05,-0.00020537893868440016,-0.0002141468536771031,0.0016044686085755966,0.002870556818423957,0.0016445908112974012,7.859999999999999
0.0006389750899473412,0.0013806168619998338,-0.007859367678313805,-0.0005965531650702731,-0.0009100258688347802,-0.00036422404551223614,7.880000000000003
,,,,,,7.900000000000006
7.333220596594803e-05,0.0011567414325797526,0.0012092187766797134,-0.0016013416315201392,-0.0009465814665247131,-0.000741342266037677,7.900000000000006
0.00033932564829258815,0.003032112088989325,0.003173018830795682,-0.0019590158097181395,-0.0017101244381998136,-0.0017825471624748727,7.920000000000002
0.00484502953861431,-0.0008973987521781329,0.01374903647457695,-1.4701319436115357e-05,-0.00019420228710479576,-0.00020717498794630557,7.940000000000005
0.00024920429539526667,0.0005928306336098338,0.000603411472004517,-0.0010610006401153664,-0.0006554364790119158,-0.000172353564577888,7.960000000000001
-3.241622574979078e-05,0.00010197805804215872,-0.0008251212118612489,1.944949050193545e-05,0.00013759818336636642,-9.638211325019904e-05,7.980000000000004
,,,,,,8.0
2.2459898010293577e-05,0.0002784461693089227,0.00013539052072248509,-4.352828658855945e-06,0.002965279493082673,-0.007175844096701585,8.0
-3.1654925263781275e-05,-0.027632379936250326,0.003260979268787878,2.1604159144147234e-05,-0.00019090783054976496,-0.0004613061864299356,8.020000000000003
-0.00010316740708302217,0.0004544967968375469,0.00024099338428859585,-0.009445712369287654,-0.0006878393586461778,0.0002527624983031114,8.04
1.399653351273622e-05,0.00011318843955789026,-9.403147635401315e-05,0.00030924186279752963,0.00044516317775361233,0.00019204608022361548,8.060000000000002
8.742586973031763e-05,0.007970732837921587,0.0007260636082268429,-1.673765644499836e-05,0.002957617895878121,-0.009318898640426409,8.080000000000005
,,,,,,8.100000000000001
-2.813674010448963e-07,-0.003207465387783978,0.00022499422294842628,-5.621667656649509e-06,-0.0032836758199662752,-0.008686638891052072,8.100000000000001
9.406763749046643e-06,0.0023407243577181214,8.603795157923443e-05,1.0875760635284393e-05,1.7114124040491785e-05,0.0022327056729736297,8.120000000000005
1.1762006223832444e-05,0.00025821767828179687,0.00022352264159209746,2.3714215095949065e-05,-0.00021651167725175724,0.016324144358432942,8.14
7.439286948018875e-06,0.0009306089888273944,0.0001746851904944821,-2.594778557048205e-05,-0.014507944217391593,0.00020237195452467438,8.160000000000004
6.236987765785573e-06,0.002763049123809154,0.00016218110790836363,-2.7111157503437178e-05,-0.01693189723036896,0.00028118695487045625,8.18
,,,,,,8.200000000000003
-3.7275733520622523e-06,-0.0003393357053171897,0.0030450660485937028,-0.01616298973383807,-0.010652389871340148,0.015315650388636285,8.200000000000003
0.00011587685942728715,0.0014228542976835595,-0.010654738812657768,-0.001967595925371519,-0.0011443539517475045,-0.0003252393217423183,8.219999999999999
11.260979737874777,11.263746813113464,11.265032042346556,11.263052339286181,11.26140517315298,11.262057469720874,8.240000000000002
11.26230762416096,11.262530271116455,11.262682741903195,11.262294461971413,11.260630945861372,11.262225042442942,8.260000000000005
11.262308400763454,11.262269398992949,11.262194900641985,11.262313792596435,11.26235547115868,11.262370601969852,8.280000000000001
,,,,,,8.300000000000004
11.262311599630626,11.262621238329618,11.263064115488147,11.262309086893106,11.26056918717964,11.262143241234565,8.300000000000004
11.262300447021717,11.262169926409666,11.261934691307804,11.262315882215498,11.262390337953523,11.262364224034656,8.32
11.26231843938722,11.262164082102402,11.26290665165145,11.26233050303412,11.261096518169067,11.261654456587786,8.340000000000003
11.26232918097005,11.262139748099969,11.263061347343024,11.26230470499645,11.262386280219337,11.264048405433941,8.36
11.26230096300312,11.262224379411297,11.262041548392999,11.262306749262024,11.262240831637104,11.262269645397113,8.380000000000003
,,,,,,8.400000000000006
11.262327675082773,11.26223737811424,11.262542520025812,11.262305641101127,11.262156273068653,11.262309105538211,8.400000000000006
11.262311197570698,11.262349554601407,11.262393566895142,11.262316258800908,11.2624480821642,11.262206758052018,8.420000000000002
11.262327539644836,11.26205935722861,11.262945522197942,11.26293414833902,11.259706950047269,11.262289894739332,8.440000000000005
11.261422785119162,11.262883553666175,11.262613215780094,11.262300294605305,11.262175001374436,11.26227738589368,8.46
11.262359321247622,11.262813250730943,11.263162511631405,11.262314465626444,11.262071480263804,11.26217012857854,8.480000000000004
,,,,,,8.5
11.26229065621288,11.244119920534198,11.263055880593102,11.262301942985113,11.262204635114218,11.26195775289675,8.5
11.262308011109187,11.262334489152915,11.262370712566018,11.262315110368426,11.262315605906329,11.262340029508714,8.520000000000003
11.262318881670264,11.262449938591065,11.262631078048557,11.262269290188645,11.262491251147077,11.262305626728685,8.54
11.262304618277154,11.262347496813465,11.26240566814271,11.262308188105537,11.262366493345535,11.261968742084266,8.560000000000002
11.262316160005845,11.262382921453508,11.262384093796157,11.262297946055758,11.262179896881719,11.262266868398795,8.580000000000005
,,,,,,8.600000000000001
11.262307360808254,11.262266241619479,11.26220486864995,11.262296895547335,11.262143466691173,11.262254614381522,8.600000000000001
11.262314618033477,11.262429179172562,11.262585053821876,11.262314442792253,11.262336595677821,11.262359686325649,8.620000000000005
11.262286764122278,11.261628799819091,11.261114777841016,11.262263247450285,11.250250913988292,11.262940625280153,8.64
11.262317320111688,11.262406057534438,11.262503683371628,11.26231023762993,11.26259331251022,11.262317635439214,8.660000000000004
11.26231474494263,11.262369141987289,11.26244714076877,11.262309869580735,11.262520648266749,11.262136474307948,8.68
,,,,,,8.700000000000003
11.262296259918427,11.261102870432971,11.262169044910085,11.262303599090139,11.262229995161047,11.262278664616808,8.700000000000003
11.26230838352641,11.262374229628081,11.262491279129604,11.262307528938429,11.262347438395295,11.262252702037713,8.719999999999999
11.262283536169084,11.261520742042688,11.26106825754608,11.262119842756144,11.261972964012998,11.26300132708116,8.740000000000002
11.2624404398682,11.262324175739503,11.262008345933703,11.262281965052342,11.26199885115884,11.262245201098628,8.760000000000005
11.26230086468239,11.262479613803096,11.263723593678897,11.262326527174883,11.262257655961815,11.262400075298759,8.780000000000001
,,,,,,8.800000000000004
11.262768814959182,11.262701700624763,11.262678090267727,11.262285316954447,11.262055819257577,11.262255436384825,8.800000000000004
11.262306718298955,11.262257285031728,11.262644044397222,11.262311580577618,11.262113035453437,11.262308572447933,8.82
11.262329166461514,11.262378152712246,11.262580004537346,11.262322491492412,11.279588017805459,11.261879258425711,8.840000000000003
11.264502146431713,11.264193939325766,11.263581170829946,11.262247025077237,11.261382719799888,11.261605377951797,8.86
11.262312888014376,11.262383133789148,11.262465113808046,11.262313617528465,11.262349511396566,11.262306322160349,8.880000000000003
,,,,,,8.900000000000006
11.26231982419663,11.262375000661025,11.262194931328194,11.262645755492173,11.262803499992145,11.262359462881056,8.900000000000006
11.262586195589039,11.262523877605187,11.262331009596437,11.262288343222206,11.262068789901887,11.262269482368811,8.920000000000002
11.26230065343506,11.262473994312295,11.263176613904589,11.262323057403368,11.262338769154242,11.262396429162562,8.940000000000005
11.262871001931785,11.26286801939749,11.262714850005553,11.262272505951865,11.261834991275533,11.262238549390409,8.96
11.262286234420914,11.261715609144026,11.263143845479602,11.262306504427093,11.262052128531677,11.262110935529318,8.980000000000004
,,,,,,9.0
11.262299172790902,11.26230307464208,11.263127876416181,11.26232912675816,11.262141302327196,11.262280545499381,9.0
11.2623041707338,11.262021534418555,11.26198784816412,11.263195529427534,11.26373460169642,11.262528990988567,9.020000000000003
11.262306722332983,11.262325527679513,11.26235102556876,11.262315920648584,11.262465565677056,11.26233045712683,9.04
11.262359784507442,11.263497525065812,11.263822945950889,11.262306303222026,11.262022633994595,11.26210481367017,9.060000000000002
11.262307121944179,11.262290256115191,11.262259002682212,11.26230518403667,11.262279554247982,11.26232461078835,9.080000000000005
,,,,,,9.100000000000001
11.262316427658579,11.262456886534283,11.262646606863417,11.262310672644274,11.262271568923559,11.26241962104062,9.100000000000001
11.262289546847972,11.26232627487077,11.262792127585875,11.262320980668594,11.262316894962863,11.262523873782671,9.120000000000005
11.261688641829318,11.261553300615946,11.261727972894573,11.262985742299383,11.263407236441797,11.262464325668741,9.14
11.262315146365136,11.262351262497045,11.262368932663664,11.262349862941523,11.261799144897465,11.261603790204465,9.160000000000004
11.262243626137616,11.212236918040597,11.264337581150714,11.262253437073642,11.26102623200825,11.261759734163428,9.18
,,,,,,9.200000000000003
11.263035781198964,11.260896190350772,11.261196094205218,11.26393731577976,11.26530577303694,11.262717962768322,9.200000000000003
11.262309103265386,11.26240040760535,11.262580375402836,11.262702054014323,11.2628059980595,11.26239418153,9.219999999999999
11.262310463333355,11.262353063877061,11.262410687845453,11.262308831931858,11.262294394908476,11.262239743781873,9.240000000000002
11.262302681270494,11.262188751002869,11.262018766260516,11.262299412650668,11.262221131458789,11.26230378858637,9.260000000000005
11.262328503493666,11.262265214884076,11.262491702227365,11.26229280111415,11.261952756056314,11.262179272841953,9.280000000000001
,,,,,,9.300000000000004
11.262301375444052,11.262285425917346,11.262252140957516,11.26229935518149,11.262260853465941,11.26233663560366,9.300000000000004
11.262311790877886,11.262334724517524,11.262328942798476,11.26230775499637,11.262253654565612,11.26227546742763,9.32
11.25187757870919,11.26113695808915,11.2611410466437,11.264118938667002,11.264666194307422,11.262589478597636,9.340000000000003
11.262310018998358,11.262304725446564,11.262339379877632,11.262925936987875,11.262979454599446,11.262380931592848,9.36
11.262492968699982,11.26237752206573,11.262580258624972,11.262286040759548,11.261488437812668,11.262555331180781,9.380000000000003
,,,,,,9.400000000000006
11.262306942224487,11.262310249429934,11.262334309185073,11.262310584066418,11.26237670721987,11.262323086576687,9.400000000000006
-2.6384724364176737,-2.638512645705618,-2.638985998947032,2.638890222787886,2.6392444976667533,2.638827645492402,9.420000000000002
-2.6384717441679935,-2.6384827883277344,-2.638678106698602,2.6388283542230933,2.6389790293915816,2.6385905953691764,9.440000000000005
-2.638084289310324,-2.6379033913738925,-2.6377958125405994,2.638445721545081,2.638296553383102,2.638463175552883,9.46
-2.6381774364737396,-2.637956777472851,-2.6376055890589334,2.6384381238499626,2.6377390006333075,2.638373545030698,9.480000000000004
,,,,,,9.5
-2.638764173276766,-2.639349234484226,-2.6404550159591738,2.638579875126386,2.6385038829577416,2.640215251755136,9.5
-2.6385698055015774,-2.6386584395120036,-2.6395659190218392,2.6384264386810083,2.6376366487531944,2.6404176775073753,9.520000000000003
-2.638650822896867,-2.6391351611780713,-2.6391457219057037,2.639155875602601,2.6396970341595525,2.638666146352756,9.54
-2.638029960859091,-2.638008300478833,-2.637678953725201,2.637874432248563,2.6380716601317062,2.6384209916638275,9.560000000000002
-2.638554714256502,-2.6386585278609758,-2.6388222415209706,2.6384694804333892,2.6382501286760127,2.6398298557220135,9.580000000000005
,,,,,,9.600000000000001
-2.638834950100558,-2.639262825767488,-2.639050008731969,2.638829194606248,2.639342141777428,2.6404970989528547,9.600000000000001
-2.638351464159855,-2.63850827736811,-2.638325682158162,2.63846751427397,2.63838472955853,2.638453227532219,9.620000000000005
-2.6385226540971223,-2.6386432435369382,-2.639874039729897,2.6384683923041345,2.6383048131696083,2.6398147023935703,9.64
-2.638493331724425,-2.6390265879243344,-2.638987006431863,2.6386407541081627,2.638777634221415,2.6403605835657578,9.660000000000004
-2.6384543141126313,-2.637983994912806,-2.6378491966146473,2.638430448743239,2.638429261715234,2.6378827566898115,9.68
,,,,,,9.700000000000003
-2.638747132645509,-2.638976919191866,-2.6389155269377125,2.638692218013945,2.63874065401967,2.6384119709733436,9.700000000000003
-2.638574457684894,-2.6387651817010265,-2.640017099557357,2.63878845642531,2.639187771199592,2.6401453360686675,9.719999999999999
-2.638535976183427,-2.6387258597974927,-2.6400118311178753,2.6384633056198,2.6382023505491934,2.6399289970468764,9.740000000000002
-2.6385110657993827,-2.639364970428319,-2.6408251429293363,2.6394109613243546,2.6396361956605947,2.6408006253146716,9.760000000000005
-2.638342347809147,-2.6379992092214892,-2.6386768914486383,2.6386235648618355,2.6377635507585873,2.6398932739586964,9.780000000000001
,,,,,,9.800000000000004
-2.6383046171730524,-2.6381204399014133,-2.638309031707319,2.638291884981714,2.6385658705816164,2.630925199850609,9.800000000000004
-2.6379728957389044,-2.63757043841142,-2.637567473369514,2.6386387678368672,2.6379329146157815,2.6382873263717905,9.82
-2.638516300560637,-2.6386840158665255,-2.640174687125707,2.6388500508250696,2.638020576906093,2.6396071090176143,9.840000000000003
-2.638734324508286,-2.6390714758933624,-2.6390102203912993,2.638467440868815,2.638623441275219,2.6236039050239772,9.86
-2.6383708295176294,-2.638262888438755,-2.6382408048363866,2.638468837583444,2.6384707717112734,2.63842880263972,9.880000000000003
,,,,,,9.900000000000006
-2.6386425451308675,-2.6387563528056335,-2.6397475990399855,2.6384384145638933,2.6385332622842363,2.6396318640013403,9.900000000000006
-2.6378858975251966,-2.6370205989247983,-2.6380246400367278,2.626835939089689,2.6375325708590616,2.638387014596169,9.920000000000002
-2.638452150118493,-2.6384408511709467,-2.638299559321034,2.6383431280545544,2.6383525951587727,2.6141482928494493,9.940000000000005
-2.638420304913173,-2.638432397580321,-2.6387463044422335,2.6375272240265977,2.6387338505860223,2.621116854563497,9.96
-2.6384457853188663,-2.638124156104983,-2.6379496106724116,2.6384602118352554,2.638376240014822,2.638399750201119,9.980000000000004
,,,,,,10.0
-2.6384517999739354,-2.638451553554843,-2.638467783724895,2.6384586525092852,2.638446277727914,2.6384691038572057,10.0
-2.638445812463368,-2.6386655941436223,-2.6403075060363146,2.6384594101533536,2.6381706617158276,2.641141719167294,10.020000000000003
-2.638680840835841,-2.6390905440957613,-2.638994542659345,2.638467698749145,2.6385084744780927,2.612814886052525,10.04
-2.6384446498293115,-2.63817610158109,-2.6380676320481746,2.634686402097127,2.6382377967116404,2.6384153459098565,10.060000000000002
-2.637982495570271,-2.6375216719740546,-2.6375584124993297,2.6384368883125506,2.638103283786797,2.638419742683756,10.080000000000005
,,,,,,10.100000000000001
-2.6384937331007716,-2.638516441810764,-2.6385923770717974,2.638389585008715,2.638581566046923,2.639713190313604,10.100000000000001
-2.638463880536954,-2.6384675814380554,-2.638782479022435,2.638461248293833,2.638488087388161,2.6384754119967972,10.120000000000005
-2.638457355204281,-2.638438339540402,-2.6385516132868743,2.6384594265187076,2.6384756971115877,2.63848454822881,10.14
-2.638449769619843,-2.6386459592162383,-2.639240745839048,2.6384714398761675,2.638641937179665,2.640121863684017,10.160000000000004
-2.637925846434646,-2.637535249473892,-2.6375567559631596,2.6389780058706496,2.6374894582532047,2.6109637583762675,10.18
,,,,,,10.200000000000003
-2.6384531555087025,-2.6384609765476528,-2.6385896916332205,2.6625125434800743,2.638565093360834,2.637929241506132,10.200000000000003
-2.6384552846828253,-2.6385415243681622,-2.6387657723648923,2.6382901352240196,2.6380983257452573,2.638351044401202,10.219999999999999
-2.6383639175566374,-2.63840341587027,-2.63844613322823,2.6487740633010413,2.637736482776922,2.639368197920082,10.240000000000002
-2.6385347015801126,-2.6386209158158884,-2.6387749244586938,2.6384203610116845,2.638453444549337,2.6252544440289007,10.260000000000005
-2.638445865564205,-2.6385900180941233,-2.6396878190582895,2.6381674521635596,2.6388619781544094,2.6359880539888274,10.280000000000001
,,,,,,10.300000000000004
-2.6387548785726196,-2.638951107150402,-2.6395953504211653,2.6384491342098695,2.638378675428923,2.63958976219126,10.300000000000004
-2.6384952239881927,-2.639405923374735,-2.6399330544498403,2.6384705442056346,2.6385596177121005,2.6294570351671096,10.32
-2.638469783053475,-2.6391626521036717,-2.6385945653100857,2.638477356150299,2.6384944248441675,2.6308899019128638,10.340000000000003
-2.638218497698004,-2.6379236541031323,-2.6380274564586887,2.6384530005772695,2.6383354475781293,2.6384370332272686,10.36
-2.6388541627654503,-2.639401412303809,-2.6392418069338373,2.638489780453406,2.638876070058632,2.6038640813844336,10.380000000000003
,,,,,,10.400000000000006
-2.6384609983672664,-2.6384678294344166,-2.6384093092567245,2.638481868518106,2.638652878238598,2.638516830785853,10.400000000000006
-2.6381676686836935,-2.6379891444986057,-2.6380323725282255,2.638446925199023,2.6384207373324133,2.6384006215678735,10.420000000000002
-2.637763471423326,-2.637211866434071,-2.636993003523743,2.637665307047257,2.6373520837129782,2.638621841064336,10.440000000000005
-2.6384916044231037,-2.6392802128740787,-2.6396229077624214,2.638256650763128,2.6385832262679227,2.648941493930603,10.46
-2.6379738280616203,-2.6390259919419345,-2.639320883613635,2.616646322849391,2.6144106570696786,2.659657797106667,10.480000000000004
,,,,,,10.5
-2.6384595747772646,-2.638425168779873,-2.6383218739732723,2.638390063905251,2.63849332764031,2.6384689759509077,10.5
-2.6389609881504414,-2.6398703317224275,-2.6399590886287885,2.638493958298418,2.6384923682983743,2.638056373409538,10.520000000000003
-2.638473561223087,-2.6388195846097817,-2.6386833299158448,2.6382857567083384,2.6386221068782554,2.6368448401474858,10.54
-2.638446201585892,-2.638219202330761,-2.6381577635056574,2.6384615964093903,2.6384378932128634,2.638441029638226,10.560000000000002
-2.6384553430223012,-2.638560625721256,-2.6395409955640177,2.638465660597339,2.6383115759697477,2.639131270144887,10.580000000000005
,,,,,,10.600000000000001
-2.6387004721770864,-2.6387830203197495,-2.6397040893748205,2.6384392471367004,2.6384530417623986,2.6394186871065046,10.600000000000001
-2.6384504550298584,-2.6383106160699072,-2.6386753949047703,2.638453443374529,2.6385537030040846,2.6388217794697293,10.620000000000005
-2.6384901388310658,-2.638566181464223,-2.638499968995176,2.6384717036050653,2.6382663498355052,2.6493662489618686,10.64
-2.638092863717844,-2.6377834271691376,-2.637914942820478,2.6384544205397473,2.6384270523762052,2.6384173144116776,10.660000000000004
-2.6384605105070387,-2.6384588059218137,-2.638473883117843,2.638460427403378,2.6384263685315723,2.6384464423226217,10.68
,,,,,,10.700000000000003
-2.638486185485625,-2.638485544481647,-2.6384090417113897,2.638445042634282,2.6380746316760852,2.6387673273439556,10.700000000000003
-2.9022313322914566,-2.902203136846579,-2.902351444851082,2.9022913740239797,2.90221245392989,2.9024163621471075,10.719999999999999
-2.902416841113349,-2.9024717144755376,-2.9030135980159355,2.902829246475122,2.901335934325169,2.9028555306193637,10.740000000000002
-2.902403545756358,-2.902439952569028,-2.9023889187197716,2.902305827184176,2.9022615723164926,2.9023558940878176,10.760000000000005
-2.9025866677636656,-2.902807937749302,-2.9032952541812347,2.9022805576008657,2.902373360820359,2.902903866719277,10.780000000000001
,,,,,,10.800000000000004
-2.902313732665307,-2.9024597772227945,-2.903104551560888,2.9023055584131954,2.90230805080014,2.9028899785568187,10.800000000000004
-2.902309072573735,-2.902562920949858,-2.9040018609890614,2.9022893034673096,2.902383305661443,2.903407882079393,10.82
-2.900252943882367,-2.9019847812192574,-2.9018301601770387,2.9023740341581292,2.9021912153741765,2.902269276107058,10.840000000000003
-2.9022994306168117,-2.902210462019071,-2.902171260598824,2.902210342932855,2.9025034713790676,2.902422394090339,10.86
-2.902290753591072,-2.9020112838695113,-2.902121037124085,2.9024270608293983,2.902095188428477,2.9022907837251197,10.880000000000003
,,,,,,10.900000000000006
-2.902163524704092,-2.9020759576581203,-2.9016401858796494,2.902291397426627,2.902061230179268,2.9022532310882037,10.900000000000006
-2.9023080025810084,-2.9024752188810576,-2.9029123061489295,2.9017463380410726,2.9030190454062716,2.903175043026015,10.920000000000002
-2.9023157544131237,-2.902427783110987,-2.902355374685652,2.902316837507295,2.9024083916566408,2.9023332330204052,10.940000000000005
-2.9023067176764212,-2.9025335466586073,-2.903159020975733,2.9023159614170875,2.9022411175508447,2.90184932711502,10.96
-2.902437255189453,-2.902851242507311,-2.9032480759253,2.9022977824382514,2.9022556569425597,2.9023693911139308,10.980000000000004
,,,,,,11.0
-2.901247313458401,-2.901090094279992,-2.9010871223065777,2.9028631341482893,2.9018250885134784,2.9018263838140106,11.0
-2.902300879274265,-2.9021826754544207,-2.9021833205482106,2.902311387862106,2.902307534597014,2.9024973477887097,11.020000000000003
-3.192637887653964,-3.192751097607019,-3.1930214104564976,3.1923706440306807,3.192848359253055,3.1924684101392504,11.04
-3.5118595016026917,-3.511913155865941,-3.5115169590041613,3.5119105321191504,3.511526133665045,3.5117249279587464,11.060000000000002
-3.86297128281679,-3.8630226322130095,-3.862978114814966,3.8629743872546407,3.862958122040766,3.8630676403121065,11.080000000000005
,,,,,,11.100000000000001
-4.249259115778792,-4.249853561936462,-4.251349581318598,4.248719648508729,4.2499323576031856,4.248326258231871,11.100000000000001
-4.674192937621033,-4.674378720076237,-4.675396487967747,4.674192308382595,4.674063769476863,4.6742877990780896,11.120000000000005
-5.141639255947966,-5.142135069234604,-5.143146636245742,5.141618687105311,5.1417706163045205,5.1411415552543955,11.14
-5.655777814079152,-5.655859460896469,-5.655905678090267,5.655776762072312,5.655934669188601,5.655718528219946,11.160000000000004
-6.221379623664746,-6.222032307637601,-6.222448280250595,6.2213328214759205,6.221482239415918,6.221362566852446,11.18
,,,,,,11.200000000000003
-6.843493631774174,-6.843608498970925,-6.843892366292376,6.843512960441647,6.843070827299105,6.843464677357666,11.200000000000003
-7.527840006294123,-7.527908763487151,-7.5280639915387635,7.527843463839286,7.527972959280417,7.527826221830661,11.219999999999999
-8.280594955137968,-8.280224489647683,-8.279985529997761,8.281365438130504,8.280021300493905,8.280618741229562,11.240000000000002
-9.108688673835333,-9.108981468752114,-9.10925107491729,9.108670938638273,9.109344032616647,9.108188839052913,11.260000000000005
-10.019553276073612,-10.019561975033792,-10.019329472902157,10.019557115170043,10.019567429531026,10.019550925617022,11.280000000000001
,,,,,,11.300000000000004
-10.019548592667835,-10.019663966741707,-10.01974885327559,10.020024012217473,10.019466713232097,10.01942116116946,11.300000000000004
-11.021885077692763,-11.022023640749499,-11.022300245087647,11.021498148783332,11.021542419268881,11.021270448034997,11.32
-12.123632223994342,-12.123129137907187,-12.122731241666596,12.12528429675836,12.123001620987035,12.12359615927614,11.340000000000003
-12.123666115316604,-12.12387228273423,-12.124209440386776,12.123660473874523,12.123758974694846,12.123828912561928,11.36
-12.123659840941748,-12.123622107183241,-12.123772645134435,12.123660876872812,12.123707677710094,12.123675653215841,11.380000000000003
,,,,,,11.400000000000006
-12.123653167525463,-12.123570455435198,-12.123439924054583,12.123664673096709,12.123740713050543,12.123679430115121,11.400000000000006
-12.123647348410955,-12.123597917284854,-12.124314162600527,12.123392600505635,12.123784000700244,12.123557757059361,11.420000000000002
-12.123660246517629,-12.123644427638355,-12.123331837847417,12.123741241046172,12.12349611875207,12.123626514657971,11.440000000000005
-12.123359820921884,-12.123341949016353,-12.123531387257344,12.123946044085825,12.12305738008055,12.123543892339974,11.46
-12.123651844714235,-12.123765603251089,-12.123846630921989,12.123649313739097,12.123423490881972,12.123676949947665,11.480000000000004
,,,,,,11.5
-12.123648401997535,-12.123560960948264,-12.123460211413327,12.12366920313441,12.123727808998161,12.123682777203921,11.5
-12.123594505627413,-12.123895833944726,-12.129662178339633,12.123615185240366,12.123773832837724,12.12325249609303,11.520000000000003
-12.124060121758356,-12.124508584555393,-12.124534953234853,12.123658223793766,12.12351907697349,12.12377625185061,11.54
-12.123660556963081,-12.12366076183484,-12.123691397419536,12.123648005897692,12.123539905142527,12.123661775524088,11.560000000000002
-12.123653462068111,-12.123881060804264,-12.12419185524487,12.123700781781588,12.123800350232697,12.123754156043042,11.580000000000005
,,,,,,11.600000000000001
-12.12365774812709,-12.123672714799909,-12.12350971435465,12.12366145628446,12.123659265976242,12.123657897246783,11.600000000000001
-12.123641502307946,-12.123333632147755,-12.122857469831256,12.123440420999973,12.124024500732169,12.124106102792984,11.620000000000005
-12.123663775352492,-12.123699595607844,-12.123742904913763,12.123662705876,12.123583890864827,12.123932612887373,11.64
-12.123657717225244,-12.123688400462488,-12.123751677101891,12.123655142750852,12.123600306834563,12.123620733631245,11.660000000000004
-12.123655602578568,-12.12362159959873,-12.1235776167431,12.123663094614551,12.123551958073598,12.12367022480425,11.68
,,,,,,11.700000000000003
-12.123656960560234,-12.123605808869945,-12.12351198251566,12.123661226420491,12.123720952204533,12.123626704796939,11.700000000000003
-12.12365971096098,-12.12382154664532,-12.123775283066637,12.123651631169325,12.123410474207043,12.122763217108304,11.719999999999999
-12.123085468363811,-12.123323989767396,-12.122923979450315,12.123639123110141,12.123054151437161,12.122400662456442,11.740000000000002
-12.123685823108891,-12.123661373278752,-12.124230439095312,12.123676354255341,12.12388068039134,12.12354864746197,11.760000000000005
-12.123652271505238,-12.123515104024639,-12.123784084011156,12.123667254539804,12.123730090540837,12.123646958473556,11.780000000000001
,,,,,,11.800000000000004
-12.123661117652393,-12.123961012408614,-12.130735122849465,12.123640090224013,12.123687954081905,12.123784596358403,11.800000000000004
-12.12366188800505,-12.12379599444128,-12.123977025113586,12.123671914977185,12.123365449225064,12.123959198644505,11.82
-12.123536592183655,-12.12353404497291,-12.123821071274934,12.123640563306608,12.12342175288075,12.123678119971979,11.840000000000003
-12.123673166446022,-12.123802891446918,-12.123689532427417,12.123657008410662,12.123694162915726,12.12353596849391,11.86
-12.123315349507635,-12.123309430399605,-12.125099543497388,12.12364862370779,12.123516069823124,12.123668791046253,11.880000000000003
,,,,,,11.900000000000006
-12.123666973447516,-12.123546087333471,-12.12288990685728,12.123388057443863,12.124214679732027,12.123728885393984,11.900000000000006
-12.123657469483225,-12.123782578485908,-12.123426270016164,12.123663353929793,12.123641215478111,12.123626748518138,11.920000000000002
-12.12365715645022,-12.123627543856433,-12.123572261239596,12.123662852678738,12.12370714985731,12.123667086244932,11.940000000000005
-12.123661017253868,-12.123643828181798,-12.123562977795425,12.1236651159734,12.123733122890416,12.123673094545072,11.96
-12.123659681868032,-12.123631225094744,-12.123553322930126,12.123665900293684,12.123717415739188,12.123660330364299,11.980000000000004
,,,,,,12.0
-12.123674843339481,-12.123682674920358,-12.123949572969856,12.123625123213202,12.122632205749738,12.12320556315948,12.0
-12.123356279771473,-12.12347050423389,-12.123846666275089,12.123657803233922,12.123654641524158,12.123726158891566,12.020000000000003
-12.122479117774473,-12.122978764093986,-12.12328964493596,12.123656225785139,12.123474808652235,12.123642725714145,12.04
-12.123605567580794,-12.124921380360384,-12.134864419224005,12.123708071147268,12.122147935882108,12.127851706145963,12.060000000000002
-12.12366256052437,-12.123699692091975,-12.12348257694131,12.123647249886671,12.123867400350232,12.123826425822598,12.080000000000005
,,,,,,12.100000000000001
-12.123649223252036,-12.123667811922026,-12.123654006379276,12.123671500750143,12.123583501551048,12.123850522173086,12.100000000000001
-12.096422297502075,-12.125876908463445,-12.123510057294125,12.123660351237538,12.123820051857475,12.123853523416342,12.120000000000005
-12.123722692997774,-12.123919481916337,-12.123042715195691,12.123127483108378,12.125638071538525,12.123509874520453,12.14
-12.123663978564013,-12.12372945295806,-12.123831103747266,12.123644074232926,12.123731127036699,12.123266547817103,12.160000000000004
-12.123696460862204,-12.123493656726668,-12.122721467134477,12.122819955131867,12.123999408533239,12.12345237511493,12.18
,,,,,,12.200000000000003
-12.12366590505972,-12.123226082360814,-12.122966355502445,12.123469531292052,12.124742953170939,12.123760717082394,12.200000000000003
-12.12365728346693,-12.123651118881273,-12.123667563790233,12.123655549045695,12.123751804189176,12.123793452918715,12.219999999999999
-12.123665187672259,-12.123690450626096,-12.123830777596343,12.123656856468335,12.123621439249824,12.123638516632333,12.240000000000002
-12.123663260018288,-12.123580977392427,-12.12350343656255,12.123661862561018,12.123895123161473,12.123764712427363,12.260000000000005
-12.12364487504981,-12.123473203533372,-12.123214873580375,12.123656610280536,12.123477463684157,12.12379368034469,12.280000000000001
,,,,,,12.300000000000004
-12.123611050302527,-12.123992020921852,-12.124775253770299,12.12364248600564,12.123233047302858,12.123771052256922,12.300000000000004
-12.12361746143744,-12.12454597887236,-12.124792316903088,12.123624785158182,12.12330903993406,12.123648343995592,12.32
-12.123828512100037,-12.125267062055578,-12.125011851085395,12.12363169580159,12.1235485974917,12.123745886064338,12.340000000000003
-12.123640583346294,-12.123755323182255,-12.124354875099128,12.123681122043951,12.123865025282296,12.123177934221626,12.36
-12.123646832113835,-12.123765530649342,-12.124111488034245,12.123614981046266,12.123497231653484,12.125070138854573,12.380000000000003
,,,,,,12.400000000000006
-12.123639779752677,-12.123730757093634,-12.12359550759239,12.123679620496873,12.122838797907669,12.124209007642735,12.400000000000006
-12.123809230500575,-12.12460269364017,-12.124416372087223,12.123662244946464,12.12384225752219,12.123795827561148,12.420000000000002
-12.123967904328353,-12.12488795240116,-12.124972584515623,12.12366319478658,12.123997089503439,12.123814137081247,12.440000000000005
-12.123655144721484,-12.123675478600918,-12.123670391476844,12.12367268565993,12.123742475094748,12.123651271296879,12.46
-12.1236514110448,-12.12363600543788,-12.123896307586794,12.123670793892137,12.12370463533465,12.123634508312664,12.480000000000004
,,,,,,12.5
-12.123653017198619,-12.123830000859872,-12.124498805259792,12.123659145037463,12.123497065381002,12.12416421640853,12.5
-12.123645442548339,-12.123765187679066,-12.124415435741936,12.123670310203591,12.123536087081987,12.123611326167106,12.520000000000003
-12.123650128068116,-12.123622117250708,-12.123547568479964,12.12367103258313,12.123757468839328,12.123664213350745,12.54
-12.123642255833808,-12.123666845298967,-12.123922027891998,12.123643429617047,12.123362901284318,12.1232359379831,12.560000000000002
-12.1236481452099,-12.123518447809786,-12.12301117746545,12.123635590028409,12.123457536053929,12.12360987315921,12.580000000000005
,,,,,,12.600000000000001
-12.123639294807132,-12.123520787202551,-12.123387476150471,12.123670921281079,12.123652249689702,12.12343932781355,12.600000000000001
-1.0142037534799364e-05,-0.012384214276998803,0.001102471894461901,3.401995274465719e-05,-3.460953260880917e-05,-0.00014702829516794608,12.620000000000005
8.57653341809414e-07,5.23794221500987e-05,5.011630112906548e-05,-4.103329952950471e-06,-2.8849105985705517e-05,-0.00041541139757042544,12.64
-1.8159641194934184e-05,0.00011507505998142875,0.00030793171950171776,0.00044307189129413893,0.0008986261827784933,0.0006552246789751255,12.660000000000004
1.495814286731588e-06,-2.440750900585542e-05,0.00010351410963892888,0.0006652210931981026,0.0015874747138727857,0.0008065538394134136,12.68
,,,,,,12.700000000000003
-1.556185551021376e-06,-2.985680421000933e-05,5.8796117110779256e-05,0.00044543497208508753,0.0008157922404305046,0.00028205832591935917,12.700000000000003
-4.70284296272272e-06,0.0006926248929592441,7.117102021926471e-05,0.0002938372115556878,0.0005506775003884107,1.943530521507711e-05,12.719999999999999
0.00019586632644264142,-0.0010685847094855806,-0.001755447542620782,0.011043245713538766,0.012857404305148073,6.180693627454853e-05,12.740000000000002
-0.0006907176277694098,-0.0024442092681467506,-0.0024114025841737025,0.0031338314853361234,0.004323691448214456,-0.0013566095418563514,12.760000000000005
3.6534508649280206e-07,-1.4102160861978463e-06,-8.726169395221507e-06,1.3048696232906276e-07,-6.186950416259621e-06,-3.167100949509269e-06,12.780000000000001
,,,,,,12.800000000000004
7.862252572068268e-06,-6.091243682458322e-05,-0.000200901750963366,1.8535421282273035e-06,0.0014548315696941878,0.0013345209563901048,12.800000000000004
-0.00016000947632393466,8.902708901452116e-05,3.612855409403093e-06,0.0010785809008767334,0.0002842615150204855,2.4026254338151143e-05,12.82
-1.1944784722640878e-05,0.0001286381160238506,-0.004131514529453855,0.0016401492478090515,0.00036712993533394994,5.812841402402617e-06,12.840000000000003
0.0012286435171135063,-0.027535974805277856,0.00659591737464987,0.017691842364005738,0.0008938572878377411,-0.021757833025500065,12.86
-0.00022191888266770432,-0.0009858804709426128,-0.022371924624947855,0.001344852159450391,-0.019612339466941887,0.013018113590279708,12.880000000000003
,,,,,,12.900000000000006
-1.0446239381789457e-05,-0.0027890281075587664,-7.09214526851791e-05,-2.1190652424382672e-06,-0.00012434268527345554,-0.0001675481971343904,12.900000000000006
0.0007526391401261254,-0.0011925646602537546,-0.0007341961867638677,0.002142410214282589,0.0020136701465558564,-0.009056090108602519,12.920000000000002
-0.0005085352706647384,-0.0019561165402231795,-0.005594369184493259,0.010066340221939708,0.0002979384563478729,0.0011190153637616815,12.940000000000005
0.008885262376907654,-0.0012596616767299729,0.0006437156098041599,-0.0008418452323505007,-0.000641378620727405,7.557854847154918e-05,12.96
-0.0024363974609637393,0.00020624626831190068,0.0006892853829550318,-3.573544150656596e-05,-0.0024964382243578727,-0.00012740557230876692,12.980000000000004
,,,,,,13.0
-1.2326507444274104e-05,-0.00908457455398435,-0.02836149957854389,2.287262548167704e-05,-0.0001308874579596421,-0.0018125641140823226,13.0
6.818314340792386e-05,-0.0023770548333309355,0.009329990972482195,-1.5751876927747044e-05,4.371122728260429e-05,0.0028040499906487673,13.020000000000003
-3.425425021682388e-06,1.5442989681731592e-05,-0.000622237491312988,4.077462017944636e-06,3.863082649015366e-05,1.865617051408433e-06,13.04
-2.954009023829751e-06,-0.0007335350585665479,5.338331365108834e-05,5.554994562569082e-07,7.61137132593015e-05,0.00021714614519686287,13.060000000000002
0.002938659698421613,0.002817548829745795,-0.0006101894009997036,0.007910360993343494,0.008169540775101363,0.0025381193260756623,13.080000000000005
,,,,,,13.100000000000001
-0.00029308290281852487,-0.0007966485601182682,-0.00029361079081116626,0.0002530278865469915,0.0005689888130194498,0.0020600966646867405,13.100000000000001
9.122883977703833e-06,-0.001958259024649113,0.00033697085015538253,-3.9078673506577014e-06,3.9456323345974124e-05,5.7376283469900806e-05,13.120000000000005
-1.3043117684276295e-06,-3.0805183128281705e-05,-0.0012283989377544664,3.467332173304541e-06,3.222258836527332e-05,3.723221955007072e-06,13.14
3.126567871570424e-05,-0.00020598645930273649,-0.042573339273957546,2.4299491273415373e-05,-0.00022826529535169542,0.0005046987999452772,13.160000000000004
3.296778847702332e-06,-0.0001559840886850559,-0.0018308158063628718,9.823992006215837e-06,-0.00023186695187173145,0.0004214834376880935,13.18
,,,,,,13.200000000000003
-0.0036430359615377897,-3.9200258932357845e-05,0.00021466224480870717,6.800845744319578e-06,-0.00023656889700127137,-0.006448767043034188,13.200000000000003
1.1206552787482171e-07,-0.000237557798019844,-0.001964572435116378,-1.2710262439014075e-05,-0.008428436059870793,-0.012788681898093502,13.219999999999999
0.0019500614036222705,-0.01908737420653618,0.00025582078845972495,0.017743507976475635,-0.0004425980661247114,0.0015393633769267435,13.240000000000002
5.20839394437117e-05,-0.0002954155065987285,-0.0010398426980361593,0.00109767184636049,0.0003451648263751439,6.585326349455023e-05,13.260000000000005
9.630633157714247e-06,-0.00015417484386345782,-0.0018208393005320796,7.037637427334542e-07,0.00032947399537727046,-3.059201304231145e-05,13.280000000000001
,,,,,,13.300000000000004
0.023769890390766185,-0.0008813884431464773,-0.0006220610498683591,-0.010825926512252837,-0.01170020235898858,0.0008278452003272659,13.300000000000004
-0.0010998429476112813,-0.0024062722078077928,-0.001858847736752621,0.006596828564926839,0.007099923773342457,-0.00434668495685531,13.32
-0.007960204323576841,-0.009871448809085557,-0.001464185935937775,0.011362010973298448,0.01079703496404727,-0.02075781562083055,13.340000000000003
0.01704506702510973,0.01038782567926556,-0.0004310082706160852,0.008671273134379917,0.002123364340493137,-0.015615491241291753,13.36
-1.3767693360623723e-05,-0.016494217256283968,-0.01913869890258912,-3.615705674234193e-05,-0.020216661493866493,0.00024939783332003423,13.380000000000003
,,,,,,13.400000000000006
7.475993809580523e-05,-0.000986320754427702,0.00016470716034942527,0.0008473547357950237,-0.01011415754571001,0.012180275437808823,13.400000000000006
1.2656143236040862e-05,0.0009216116894243676,0.0006841388927765575,-1.4687232018998839e-05,-0.00022807776368646534,-0.00011177155372276912,13.420000000000002
0.0009314708994683195,-0.0022532781111803332,0.0009709604945797121,-9.639275993518492e-06,-0.0007540996436697471,-0.00034411679438433283,13.440000000000005
0.0004678678475999454,-0.00015948762929031586,-0.0001451961006485175,0.0008629818894623671,-0.00020619672179130952,-1.0884367690840516e-05,13.46
0.00013777390171730228,-0.02673043875728546,0.0010385636296354108,0.0005830757527286509,0.0003991361357000055,0.005600784598548054,13.480000000000004
,,,,,,13.5
0.0047755660881814346,0.006320695253330708,-0.007046319624653782,-0.001095708512080018,-0.0004754523422539139,-0.00012154329694840662,13.5
0.0002967894593553645,0.0015259676778724396,9.580369143905357e-05,-0.003900866572106163,-0.005545385280887421,0.012072006778730755,13.520000000000003
-0.0017763527314119294,0.0009153255372321041,0.011255998863781164,-2.6581494361313518e-05,-0.0022990215264374336,0.01387665398103384,13.54
-0.00043775064773681274,1.7699772211637876e-05,-0.00025920857052359227,-0.0004644041942187954,-0.000532445636879271,-7.353667941460695e-06,13.560000000000002
-1.7209090377168224e-05,-9.670930351361393e-05,-0.004856359980424316,1.4893568074995228e-05,-0.00015869616831319655,0.008361329412239545,13.580000000000005
,,,,,,13.600000000000001
-0.0006956547033734675,0.0008508937184733105,-0.0022328552954482966,-0.0003710551794677622,-0.00018650823086391322,-0.013511103759928984,13.600000000000001
0.0005779234443988035,-0.0006081734890766924,0.0001591145476928027,0.004336705175510166,0.0036191047581285093,0.00017268569058436628,13.620000000000005
0.0027163277315401246,0.00016455056826197162,0.001767803751167845,-0.003941159083184782,-0.004380180314240381,0.0016718609893738128,13.64
-0.0023144255877971254,-0.0017583827600996943,-0.001029568789704588,-0.00887059848266633,-0.009480395720843176,0.008883071020166765,13.660000000000004
-4.65385439529023e-05,-0.02441125656294771,0.0003679559377671657,-3.208889289125355e-05,-0.016603175082251075,0.0002812252103618629,13.68
,,,,,,13.700000000000003
-0.00012543206419175605,-0.00036086452904140077,-0.0008845355434519669,-3.902775627805111e-06,0.0002477844684999342,0.0008830281739059462,13.700000000000003
0.0005060222073596972,-0.0013796797883736701,-0.009076322560179222,-0.004405269467281217,-0.004842101382814715,0.03285485800477877,13.719999999999999
-0.0016121108922321188,-0.004062391058387568,-0.001081342206206225,0.03148282466813748,-0.0004309082372302448,-6.608530251557554e-05,13.740000000000002
-1.9071909859353503e-05,0.0003962265310754505,-0.03072137034197591,1.3938217976523781e-05,6.681669127468065e-05,0.005505972357775939,13.760000000000005
1.2942296754497873e-05,-0.00016587317009246483,-0.0005918768270569454,-9.456299227255521e-06,0.0001089268924260138,0.002810110305534186,13.780000000000001
,,,,,,13.800000000000004
0.00018893375348707359,-0.0002552260261606404,0.0002889190515753641,0.000941922333923588,0.00024280731379251047,0.00053878148628601,13.800000000000004
0.011713537464424387,-0.001338515877669803,-0.03804133691930278,-0.00036244168625670925,-9.589361662643708e-05,-5.343126515924834e-05,13.82
-0.0006385597697898381,0.0003038058902718778,-0.00010673454003366084,0.004258234065864948,0.00403557470012944,-0.018976324529087114,13.840000000000003
-0.0002710451571923216,-0.0008523259636061839,-0.00450101506062526,0.004820386362192276,0.006160773776591889,0.0002854731133765803,13.86
-0.00021276524105891086,-0.001125474833115198,-0.0015749634839891079,0.00637358967663571,0.005786002080172127,0.0011119453821483612,13.880000000000003
,,,,,,13.900000000000006
0.0001861463531138037,-0.0002922625231604678,-0.0003300161434475011,1.9349536685295265e-05,0.000908730549756015,0.0001510601054791963,13.900000000000006
-0.0006747278574591176,0.0004921642862456138,0.0003219787347279422,-1.3581319064006475e-05,-0.00014545818185783023,7.393965980319502e-05,13.920000000000002
1.168365626250372e-06,2.7040135289423638e-06,-4.496358043497295e-06,-4.905616230121111e-07,-9.074243734215944e-06,0.00010938878381613545,13.940000000000005
-1.0124104776715326e-05,-0.002310016089885169,-0.012990038360049694,8.117925480062571e-06,-3.9697217249421574e-05,-0.0006926911762331553,13.96
0.012299178324358815,0.013115139281611062,0.002436876786642256,-4.066624936642895e-05,-0.0004987295132462613,0.0004255025499326909,13.980000000000004
,,,,,,14.0
-1.600678643476263e-05,-0.0003731950085667955,-0.003049385106300692,0.0028912305004180038,0.00023486339005133333,0.000750826927978239,14.0
-0.0005893325241961428,6.492942731702034e-06,-5.2732861397356e-05,-0.00033482549983810533,-1.0252041542334334e-05,9.737253541940161e-05,14.020000000000003
